; generated by PrusaSlicer 2.3.1+win64 on 2022-12-06 at 21:06:29 UTC

; 

; external perimeters extrusion width = 0.45mm
; perimeters extrusion width = 0.45mm
; infill extrusion width = 0.45mm
; solid infill extrusion width = 0.45mm
; top infill extrusion width = 0.40mm
; first layer extrusion width = 0.42mm

M73 P0 R107
M73 Q0 S108
M201 X1000 Y1000 Z200 E5000 ; sets maximum accelerations, mm/sec^2
M203 X200 Y200 Z12 E120 ; sets maximum feedrates, mm/sec
M204 P1250 R1250 T1250 ; sets acceleration (P, T) and retract acceleration (R), mm/sec^2
M205 X8.00 Y8.00 Z0.40 E4.50 ; sets the jerk limits, mm/sec
M205 S0 T0 ; sets the minimum extruding and travel feed rate, mm/sec
M107
;TYPE:Custom
M862.3 P "MK3S" ; printer model check
M862.1 P0.4 ; nozzle diameter check
M115 U3.11.0 ; tell printer latest fw version
G90 ; use absolute coordinates
M83 ; extruder relative mode
M104 S215 ; set extruder temp
M140 S60 ; set bed temp
M190 S60 ; wait for bed temp
M109 S215 ; wait for extruder temp
G28 W ; home all without mesh bed level
G80 ; mesh bed leveling
G1 Y-3.0 F1000.0 ; go outside print area
G92 E0.0
G1 X60.0 E9.0 F1000.0 ; intro line
G1 X100.0 E12.5 F1000.0 ; intro line
G92 E0.0
M221 S95

; Don't change E values below. Excessive value can damage the printer.
M907 E430 ; set extruder motor current
G21 ; set units to millimeters
G90 ; use absolute coordinates
M83 ; use relative distances for extrusion
M900 K0.05 ; Filament gcode LA 1.5
M900 K30 ; Filament gcode LA 1.0
;LAYER_CHANGE
;Z:0.2
;HEIGHT:0.2
;BEFORE_LAYER_CHANGE
G92 E0.0
;0.2


G1 E-0.80000 F2100.000
G1 Z0.400 F10800.000
;AFTER_LAYER_CHANGE
;0.2
G1 X79.047 Y73.229
G1 Z0.200
G1 E0.80000 F2100.000
M204 S1000
;TYPE:Skirt
;WIDTH:0.42
G1 F1200.000
G1 X79.737 Y73.123 E0.02190
G1 X170.254 Y73.123 E2.83808
G1 X171.152 Y73.301 E0.02872
G1 X171.914 Y73.803 E0.02860
G1 X172.431 Y74.555 E0.02860
G1 X172.627 Y75.449 E0.02872
G1 X172.627 Y134.542 E1.85280
G1 X172.549 Y135.103 E0.01775
G1 X172.342 Y135.629 E0.01775
G1 X172.013 Y136.095 E0.01787
G1 X171.585 Y136.467 E0.01775
G1 X170.953 Y136.771 E0.02201
G1 X170.263 Y136.877 E0.02190
G1 X79.735 Y136.877 E2.83843
G1 X79.166 Y136.804 E0.01799
G1 X78.631 Y136.597 E0.01799
G1 X78.161 Y136.268 E0.01799
G1 X77.783 Y135.835 E0.01799
G1 X77.480 Y135.206 E0.02190
G1 X77.373 Y134.516 E0.02190
G1 X77.373 Y75.477 E1.85113
M73 P0 R106
G1 X77.447 Y74.912 E0.01787
G1 X77.655 Y74.377 E0.01799
G1 X77.985 Y73.908 E0.01799
G1 X78.415 Y73.533 E0.01787
G1 X78.993 Y73.255 E0.02013
; printing object enclosure_v1-frame 2v5.stl id:0 copy 0
;WIPE_START
G1 F8640.000
G1 X79.737 Y73.123 E-0.17454
G1 X82.273 Y73.123 E-0.58546
;WIPE_END
G1 E-0.04000 F2100.000
G1 Z0.600 F10800.000
G1 X105.787 Y82.532
G1 Z0.200
G1 E0.80000 F2100.000
;TYPE:Perimeter
G1 F1200.000
G1 X105.894 Y82.559 E0.00347
G1 X106.302 Y82.589 E0.01282
G1 X106.713 Y82.538 E0.01298
G1 X106.713 Y127.470 E1.40881
G1 X106.613 Y127.442 E0.00326
G1 X106.198 Y127.411 E0.01305
G1 X105.787 Y127.462 E0.01298
G1 X105.787 Y82.592 E1.40688
;WIPE_START
G1 F8640.000
G1 X105.894 Y82.559 E-0.02591
G1 X106.302 Y82.589 E-0.09440
G1 X106.713 Y82.538 E-0.09560
G1 X106.713 Y84.894 E-0.54409
;WIPE_END
G1 E-0.04000 F2100.000
G1 Z0.600 F10800.000
G1 X131.164 Y103.808
G1 Z0.200
G1 E0.80000 F2100.000
G1 F1200.000
G1 X131.336 Y103.815 E0.00539
G1 X131.336 Y127.192 E0.73299
G1 X131.164 Y127.185 E0.00539
G1 X131.164 Y103.868 E0.73111
;WIPE_START
G1 F8640.000
G1 X131.336 Y103.815 E-0.04147
G1 X131.336 Y106.927 E-0.71853
;WIPE_END
G1 E-0.04000 F2100.000
G1 Z0.600 F10800.000
G1 X106.312 Y82.968
G1 Z0.200
G1 E0.80000 F2100.000
G1 F1200.000
G1 X106.336 Y82.965 E0.00077
G1 X106.336 Y127.043 E1.38202
G1 X106.164 Y127.035 E0.00539
G1 X106.164 Y82.957 E1.38202
G1 X106.252 Y82.964 E0.00275
;WIPE_START
G1 F8640.000
G1 X106.336 Y82.965 E-0.01943
G1 X106.336 Y86.173 E-0.74057
;WIPE_END
G1 E-0.04000 F2100.000
G1 Z0.600 F10800.000
G1 X108.710 Y80.586
G1 Z0.200
G1 E0.80000 F2100.000
G1 F1200.000
G1 X131.164 Y80.586 E0.70402
G1 X131.164 Y99.185 E0.58317
G1 X131.336 Y99.192 E0.00539
G1 X131.336 Y80.586 E0.58340
G1 X161.790 Y80.586 E0.95485
G1 X161.781 Y80.501 E0.00267
G1 X161.827 Y80.034 E0.01473
G1 X161.934 Y79.646 E0.01261
G1 X162.143 Y79.213 E0.01509
G1 X162.440 Y78.821 E0.01542
G1 X162.809 Y78.495 E0.01542
G1 X163.235 Y78.249 E0.01542
G1 X163.701 Y78.093 E0.01542
G1 X164.188 Y78.032 E0.01542
G1 X164.679 Y78.068 E0.01542
G1 X165.152 Y78.202 E0.01542
G1 X165.590 Y78.426 E0.01542
G1 X165.974 Y78.733 E0.01542
G1 X166.290 Y79.109 E0.01542
G1 X166.525 Y79.541 E0.01542
G1 X166.670 Y80.011 E0.01542
G1 X166.719 Y80.500 E0.01542
G1 X166.670 Y80.989 E0.01542
G1 X166.525 Y81.459 E0.01542
G1 X166.296 Y81.880 E0.01504
G1 X166.051 Y82.187 E0.01232
G1 X165.691 Y82.505 E0.01504
G1 X165.265 Y82.751 E0.01542
G1 X164.799 Y82.907 E0.01542
G1 X164.312 Y82.968 E0.01542
G1 X164.164 Y82.957 E0.00463
G1 X164.164 Y99.185 E0.50882
G1 X164.652 Y99.216 E0.01531
G1 X165.075 Y99.334 E0.01380
G1 X165.418 Y99.498 E0.01190
G1 X165.784 Y99.761 E0.01416
G1 X166.099 Y100.100 E0.01448
G1 X166.339 Y100.494 E0.01448
G1 X166.497 Y100.928 E0.01448
G1 X166.566 Y101.384 E0.01448
G1 X166.543 Y101.846 E0.01448
G1 X166.429 Y102.293 E0.01448
G1 X166.229 Y102.709 E0.01448
G1 X165.950 Y103.077 E0.01448
G1 X165.604 Y103.383 E0.01448
G1 X165.204 Y103.614 E0.01448
G1 X164.766 Y103.761 E0.01448
G1 X164.308 Y103.818 E0.01448
G1 X164.164 Y103.808 E0.00452
G1 X164.164 Y127.035 E0.72827
G1 X164.679 Y127.068 E0.01617
G1 X165.152 Y127.202 E0.01542
G1 X165.590 Y127.426 E0.01542
G1 X165.974 Y127.733 E0.01542
G1 X166.290 Y128.109 E0.01542
G1 X166.525 Y128.541 E0.01542
G1 X166.670 Y129.011 E0.01542
G1 X166.719 Y129.500 E0.01542
G1 X166.670 Y129.989 E0.01542
G1 X166.525 Y130.459 E0.01542
G1 X166.291 Y130.890 E0.01538
G1 X165.989 Y131.250 E0.01473
G1 X165.682 Y131.510 E0.01261
G1 X165.265 Y131.751 E0.01509
G1 X164.799 Y131.907 E0.01542
G1 X164.312 Y131.968 E0.01542
G1 X163.821 Y131.932 E0.01542
G1 X163.348 Y131.798 E0.01542
G1 X162.910 Y131.574 E0.01542
G1 X162.526 Y131.267 E0.01542
G1 X162.210 Y130.891 E0.01542
G1 X161.975 Y130.459 E0.01542
G1 X161.830 Y129.989 E0.01542
G1 X161.781 Y129.500 E0.01542
G1 X161.790 Y129.414 E0.00270
G1 X133.565 Y129.414 E0.88497
M73 Q0 S107
G1 X133.543 Y129.846 E0.01355
G1 X133.429 Y130.293 E0.01448
G1 X133.229 Y130.709 E0.01448
G1 X132.950 Y131.077 E0.01448
G1 X132.604 Y131.383 E0.01448
G1 X132.204 Y131.614 E0.01448
G1 X131.766 Y131.761 E0.01448
G1 X131.308 Y131.818 E0.01448
G1 X130.847 Y131.784 E0.01448
G1 X130.403 Y131.659 E0.01448
G1 X129.992 Y131.448 E0.01448
G1 X129.631 Y131.160 E0.01448
G1 X129.335 Y130.807 E0.01445
G1 X129.123 Y130.421 E0.01380
G1 X129.001 Y130.062 E0.01190
G1 X128.934 Y129.616 E0.01416
G1 X128.944 Y129.414 E0.00632
G1 X108.710 Y129.414 E0.63441
G1 X108.719 Y129.500 E0.00271
G1 X108.670 Y129.989 E0.01542
G1 X108.525 Y130.459 E0.01542
G1 X108.290 Y130.891 E0.01542
G1 X107.982 Y131.258 E0.01504
G1 X107.681 Y131.511 E0.01232
G1 X107.265 Y131.751 E0.01504
G1 X106.799 Y131.907 E0.01542
G1 X106.312 Y131.968 E0.01542
G1 X105.821 Y131.932 E0.01542
G1 X105.348 Y131.798 E0.01542
G1 X104.910 Y131.574 E0.01542
G1 X104.526 Y131.268 E0.01542
G1 X104.210 Y130.891 E0.01542
G1 X103.975 Y130.460 E0.01538
G1 X103.836 Y130.011 E0.01473
G1 X103.785 Y129.613 E0.01261
G1 X103.794 Y129.414 E0.00623
G1 X88.565 Y129.414 E0.47752
G1 X88.543 Y129.846 E0.01355
G1 X88.429 Y130.293 E0.01448
G1 X88.229 Y130.709 E0.01448
G1 X87.950 Y131.077 E0.01448
G1 X87.604 Y131.383 E0.01448
G1 X87.204 Y131.614 E0.01448
G1 X86.766 Y131.761 E0.01448
G1 X86.308 Y131.818 E0.01448
G1 X85.848 Y131.784 E0.01445
G1 X85.425 Y131.666 E0.01380
G1 X85.082 Y131.502 E0.01190
G1 X84.716 Y131.239 E0.01416
G1 X84.401 Y130.900 E0.01448
G1 X84.161 Y130.506 E0.01448
G1 X84.003 Y130.072 E0.01448
G1 X83.934 Y129.616 E0.01448
G1 X83.957 Y129.154 E0.01448
G1 X84.071 Y128.707 E0.01448
G1 X84.271 Y128.291 E0.01448
G1 X84.550 Y127.923 E0.01448
G1 X84.896 Y127.617 E0.01448
G1 X85.296 Y127.386 E0.01448
G1 X85.734 Y127.239 E0.01448
G1 X86.192 Y127.182 E0.01448
G1 X86.336 Y127.192 E0.00452
G1 X86.336 Y82.815 E1.39143
G1 X85.848 Y82.784 E0.01531
G1 X85.425 Y82.666 E0.01380
G1 X85.082 Y82.502 E0.01190
G1 X84.716 Y82.239 E0.01416
G1 X84.401 Y81.900 E0.01448
G1 X84.161 Y81.506 E0.01448
G1 X84.003 Y81.072 E0.01448
G1 X83.934 Y80.616 E0.01448
G1 X83.957 Y80.154 E0.01448
G1 X84.071 Y79.707 E0.01448
G1 X84.271 Y79.291 E0.01448
G1 X84.550 Y78.923 E0.01448
G1 X84.896 Y78.617 E0.01448
G1 X85.296 Y78.386 E0.01448
G1 X85.734 Y78.239 E0.01448
G1 X86.192 Y78.182 E0.01448
G1 X86.653 Y78.216 E0.01448
G1 X87.086 Y78.338 E0.01410
G1 X87.419 Y78.499 E0.01162
G1 X87.784 Y78.761 E0.01410
G1 X88.099 Y79.100 E0.01448
G1 X88.339 Y79.494 E0.01448
G1 X88.497 Y79.928 E0.01448
G1 X88.566 Y80.384 E0.01448
G1 X88.556 Y80.586 E0.00632
G1 X103.786 Y80.586 E0.47752
G1 X103.809 Y80.132 E0.01425
G1 X103.930 Y79.656 E0.01542
G1 X104.143 Y79.213 E0.01542
G1 X104.440 Y78.821 E0.01542
G1 X104.809 Y78.495 E0.01542
G1 X105.235 Y78.249 E0.01542
G1 X105.701 Y78.093 E0.01542
G1 X106.188 Y78.032 E0.01542
G1 X106.679 Y78.068 E0.01542
G1 X107.152 Y78.202 E0.01542
G1 X107.590 Y78.426 E0.01542
G1 X107.974 Y78.733 E0.01542
G1 X108.290 Y79.109 E0.01542
G1 X108.525 Y79.541 E0.01542
G1 X108.670 Y80.011 E0.01542
G1 X108.716 Y80.526 E0.01622
;WIPE_START
G1 F8640.000
G1 X112.008 Y80.535 E-0.76000
;WIPE_END
G1 E-0.04000 F2100.000
G1 Z0.600 F10800.000
G1 X129.828 Y100.180
G1 Z0.200
G1 E0.80000 F2100.000
G1 F1200.000
G1 X130.117 Y99.925 E0.01211
G1 X130.452 Y99.732 E0.01211
G1 X130.818 Y99.609 E0.01211
G1 X131.202 Y99.561 E0.01211
G1 X131.587 Y99.589 E0.01211
G1 X131.959 Y99.694 E0.01211
G1 X132.303 Y99.870 E0.01211
G1 X132.605 Y100.111 E0.01211
G1 X132.853 Y100.407 E0.01209
G1 X133.030 Y100.731 E0.01160
G1 X133.131 Y101.027 E0.00981
G1 X133.188 Y101.403 E0.01192
G1 X133.168 Y101.789 E0.01211
G1 X133.073 Y102.164 E0.01211
G1 X132.905 Y102.512 E0.01211
G1 X132.672 Y102.820 E0.01211
G1 X132.383 Y103.075 E0.01211
G1 X132.048 Y103.268 E0.01211
G1 X131.682 Y103.391 E0.01211
G1 X131.298 Y103.439 E0.01211
G1 X130.913 Y103.411 E0.01211
G1 X130.541 Y103.306 E0.01211
G1 X130.197 Y103.130 E0.01211
G1 X129.895 Y102.889 E0.01211
G1 X129.647 Y102.593 E0.01209
G1 X129.470 Y102.269 E0.01160
G1 X129.369 Y101.973 E0.00981
G1 X129.312 Y101.597 E0.01192
G1 X129.332 Y101.211 E0.01211
G1 X129.427 Y100.836 E0.01211
G1 X129.595 Y100.488 E0.01211
G1 X129.792 Y100.228 E0.01023
G1 X130.092 Y100.456 F10800.000
;TYPE:External perimeter
G1 F1200.000
G1 X130.339 Y100.232 E0.01043
G1 X130.608 Y100.077 E0.00975
G1 X130.903 Y99.978 E0.00975
G1 X131.211 Y99.939 E0.00975
G1 X131.521 Y99.963 E0.00975
G1 X131.820 Y100.047 E0.00975
G1 X132.097 Y100.189 E0.00975
G1 X132.340 Y100.382 E0.00975
G1 X132.540 Y100.620 E0.00974
G1 X132.684 Y100.884 E0.00941
G1 X132.763 Y101.117 E0.00773
G1 X132.809 Y101.422 E0.00968
G1 X132.794 Y101.733 E0.00975
G1 X132.717 Y102.034 E0.00975
G1 X132.582 Y102.314 E0.00975
G1 X132.394 Y102.562 E0.00975
G1 X132.161 Y102.768 E0.00975
G1 X131.892 Y102.923 E0.00975
G1 X131.597 Y103.022 E0.00975
G1 X131.289 Y103.061 E0.00975
G1 X130.979 Y103.037 E0.00975
G1 X130.680 Y102.953 E0.00975
G1 X130.403 Y102.811 E0.00975
G1 X130.160 Y102.618 E0.00975
G1 X129.960 Y102.380 E0.00974
G1 X129.816 Y102.116 E0.00941
G1 X129.737 Y101.883 E0.00773
G1 X129.691 Y101.578 E0.00968
G1 X129.706 Y101.267 E0.00975
G1 X129.783 Y100.966 E0.00975
G1 X129.918 Y100.686 E0.00975
G1 X130.056 Y100.504 E0.00717
G1 X129.991 Y100.139 F10800.000
;WIPE_START
G1 F8640.000
G1 X130.339 Y100.232 E-0.09048
G1 X130.608 Y100.077 E-0.07178
G1 X130.903 Y99.978 E-0.07178
G1 X131.211 Y99.939 E-0.07178
G1 X131.521 Y99.963 E-0.07178
G1 X131.820 Y100.047 E-0.07178
G1 X132.097 Y100.189 E-0.07178
G1 X132.340 Y100.382 E-0.07178
G1 X132.540 Y100.620 E-0.07173
G1 X132.684 Y100.884 E-0.06927
G1 X132.720 Y100.990 E-0.02605
;WIPE_END
G1 E-0.04000 F2100.000
G1 Z0.600 F10800.000
G1 X131.202 Y127.561
G1 Z0.200
G1 E0.80000 F2100.000
;TYPE:Perimeter
G1 F1200.000
G1 X131.587 Y127.589 E0.01211
G1 X131.959 Y127.694 E0.01211
G1 X132.303 Y127.870 E0.01211
G1 X132.605 Y128.111 E0.01211
G1 X132.853 Y128.407 E0.01211
G1 X133.034 Y128.740 E0.01188
G1 X133.131 Y129.029 E0.00955
G1 X133.188 Y129.403 E0.01188
G1 X133.168 Y129.789 E0.01211
G1 X133.073 Y130.164 E0.01211
G1 X132.905 Y130.512 E0.01211
G1 X132.672 Y130.820 E0.01211
G1 X132.383 Y131.075 E0.01211
G1 X132.048 Y131.268 E0.01211
G1 X131.682 Y131.391 E0.01211
G1 X131.298 Y131.439 E0.01211
G1 X130.913 Y131.411 E0.01211
G1 X130.541 Y131.306 E0.01211
G1 X130.197 Y131.130 E0.01211
G1 X129.895 Y130.889 E0.01211
G1 X129.647 Y130.593 E0.01209
G1 X129.470 Y130.269 E0.01160
G1 X129.369 Y129.973 E0.00981
G1 X129.312 Y129.597 E0.01192
G1 X129.332 Y129.211 E0.01211
G1 X129.427 Y128.836 E0.01211
G1 X129.595 Y128.488 E0.01211
G1 X129.828 Y128.180 E0.01211
G1 X130.117 Y127.925 E0.01211
G1 X130.452 Y127.732 E0.01211
G1 X130.818 Y127.609 E0.01211
G1 X131.142 Y127.568 E0.01023
G1 X131.189 Y127.942 F10800.000
;TYPE:External perimeter
G1 F1200.000
G1 X131.521 Y127.963 E0.01043
G1 X131.820 Y128.047 E0.00975
G1 X132.097 Y128.189 E0.00975
G1 X132.340 Y128.382 E0.00975
G1 X132.540 Y128.621 E0.00975
G1 X132.687 Y128.891 E0.00966
G1 X132.763 Y129.117 E0.00748
G1 X132.809 Y129.422 E0.00966
G1 X132.794 Y129.733 E0.00975
G1 X132.717 Y130.034 E0.00975
G1 X132.582 Y130.314 E0.00975
G1 X132.394 Y130.562 E0.00975
G1 X132.161 Y130.768 E0.00975
G1 X131.892 Y130.923 E0.00975
G1 X131.597 Y131.022 E0.00975
G1 X131.289 Y131.061 E0.00975
G1 X130.979 Y131.037 E0.00975
G1 X130.680 Y130.953 E0.00975
G1 X130.403 Y130.811 E0.00975
G1 X130.160 Y130.618 E0.00975
G1 X129.960 Y130.380 E0.00974
G1 X129.816 Y130.116 E0.00941
G1 X129.737 Y129.883 E0.00773
G1 X129.691 Y129.578 E0.00968
G1 X129.706 Y129.267 E0.00975
G1 X129.783 Y128.966 E0.00975
G1 X129.918 Y128.686 E0.00975
G1 X130.106 Y128.438 E0.00975
G1 X130.339 Y128.232 E0.00975
G1 X130.608 Y128.077 E0.00975
G1 X130.903 Y127.978 E0.00975
G1 X131.129 Y127.950 E0.00717
G1 X131.345 Y127.648 F10800.000
;WIPE_START
G1 F8640.000
G1 X131.521 Y127.963 E-0.09048
G1 X131.820 Y128.047 E-0.07178
G1 X132.097 Y128.189 E-0.07178
G1 X132.340 Y128.382 E-0.07178
G1 X132.540 Y128.621 E-0.07178
G1 X132.687 Y128.891 E-0.07117
G1 X132.763 Y129.117 E-0.05508
G1 X132.809 Y129.422 E-0.07117
G1 X132.794 Y129.733 E-0.07178
G1 X132.717 Y130.034 E-0.07178
G1 X132.639 Y130.196 E-0.04141
;WIPE_END
G1 E-0.04000 F2100.000
G1 Z0.600 F10800.000
G1 X162.703 Y102.671
G1 Z0.200
G1 E0.80000 F2100.000
;TYPE:Perimeter
G1 F1200.000
G1 X162.502 Y102.342 E0.01211
G1 X162.370 Y101.979 E0.01211
G1 X162.312 Y101.597 E0.01211
G1 X162.332 Y101.211 E0.01211
G1 X162.427 Y100.836 E0.01211
G1 X162.595 Y100.488 E0.01211
G1 X162.828 Y100.180 E0.01211
G1 X163.117 Y99.925 E0.01211
G1 X163.452 Y99.732 E0.01211
G1 X163.818 Y99.609 E0.01211
G1 X164.202 Y99.561 E0.01211
G1 X164.586 Y99.589 E0.01209
G1 X164.943 Y99.689 E0.01160
G1 X165.225 Y99.824 E0.00981
G1 X165.534 Y100.045 E0.01192
G1 X165.796 Y100.329 E0.01211
G1 X165.998 Y100.658 E0.01211
G1 X166.130 Y101.021 E0.01211
G1 X166.188 Y101.403 E0.01211
G1 X166.168 Y101.789 E0.01211
G1 X166.073 Y102.164 E0.01211
G1 X165.905 Y102.512 E0.01211
G1 X165.672 Y102.820 E0.01211
G1 X165.383 Y103.075 E0.01211
G1 X165.048 Y103.268 E0.01211
G1 X164.682 Y103.391 E0.01211
G1 X164.298 Y103.439 E0.01211
G1 X163.914 Y103.411 E0.01209
G1 X163.557 Y103.311 E0.01160
G1 X163.275 Y103.176 E0.00981
G1 X162.966 Y102.955 E0.01192
G1 X162.744 Y102.715 E0.01023
G1 X163.021 Y102.459 F10800.000
;TYPE:External perimeter
G1 F1200.000
G1 X162.843 Y102.177 E0.01043
G1 X162.737 Y101.885 E0.00975
G1 X162.691 Y101.578 E0.00975
G1 X162.706 Y101.267 E0.00975
G1 X162.783 Y100.966 E0.00975
G1 X162.918 Y100.686 E0.00975
G1 X163.106 Y100.438 E0.00975
G1 X163.339 Y100.232 E0.00975
G1 X163.608 Y100.077 E0.00975
G1 X163.903 Y99.978 E0.00975
G1 X164.211 Y99.939 E0.00975
G1 X164.521 Y99.963 E0.00974
G1 X164.810 Y100.043 E0.00941
G1 X165.032 Y100.149 E0.00773
G1 X165.283 Y100.330 E0.00968
G1 X165.494 Y100.557 E0.00975
G1 X165.657 Y100.823 E0.00975
