; generated by PrusaSlicer 2.3.1+win64 on 2022-12-08 at 16:21:46 UTC

; 

; external perimeters extrusion width = 0.45mm
; perimeters extrusion width = 0.45mm
; infill extrusion width = 0.45mm
; solid infill extrusion width = 0.45mm
; top infill extrusion width = 0.40mm
; support material extrusion width = 0.35mm
; first layer extrusion width = 0.42mm

M73 P0 R125
M73 Q0 S127
M201 X1000 Y1000 Z200 E5000 ; sets maximum accelerations, mm/sec^2
M203 X200 Y200 Z12 E120 ; sets maximum feedrates, mm/sec
M204 P1250 R1250 T1250 ; sets acceleration (P, T) and retract acceleration (R), mm/sec^2
M205 X8.00 Y8.00 Z0.40 E4.50 ; sets the jerk limits, mm/sec
M205 S0 T0 ; sets the minimum extruding and travel feed rate, mm/sec
M107
;TYPE:Custom
M862.3 P "MK3S" ; printer model check
M862.1 P0.4 ; nozzle diameter check
M115 U3.11.0 ; tell printer latest fw version
G90 ; use absolute coordinates
M83 ; extruder relative mode
M104 S215 ; set extruder temp
M140 S60 ; set bed temp
M190 S60 ; wait for bed temp
M109 S215 ; wait for extruder temp
G28 W ; home all without mesh bed level
G80 ; mesh bed leveling
G1 Y-3.0 F1000.0 ; go outside print area
G92 E0.0
G1 X60.0 E9.0 F1000.0 ; intro line
G1 X100.0 E12.5 F1000.0 ; intro line
G92 E0.0
M221 S95

; Don't change E values below. Excessive value can damage the printer.
M907 E430 ; set extruder motor current
G21 ; set units to millimeters
G90 ; use absolute coordinates
M83 ; use relative distances for extrusion
M900 K0.05 ; Filament gcode LA 1.5
M900 K30 ; Filament gcode LA 1.0
;LAYER_CHANGE
;Z:0.2
;HEIGHT:0.2
;BEFORE_LAYER_CHANGE
G92 E0.0
;0.2


M73 Q0 S126
G1 E-0.80000 F2100.000
G1 Z0.400 F10800.000
;AFTER_LAYER_CHANGE
;0.2
G1 X79.025 Y71.911
G1 Z0.200
G1 E0.80000 F2100.000
M204 S1000
;TYPE:Skirt
;WIDTH:0.42
G1 F1200.000
G1 X79.737 Y71.798 E0.02260
G1 X170.254 Y71.798 E2.83808
G1 X171.081 Y71.948 E0.02637
G1 X171.805 Y72.377 E0.02637
G1 X172.334 Y73.031 E0.02637
G1 X172.602 Y73.829 E0.02637
G1 X176.397 Y113.571 E1.25177
G1 X176.352 Y131.780 E0.57092
G1 X176.178 Y132.315 E0.01763
G1 X175.886 Y132.791 E0.01752
G1 X172.056 Y137.371 E0.18720
G1 X171.624 Y137.765 E0.01835
G1 X170.975 Y138.089 E0.02272
G1 X170.260 Y138.202 E0.02272
G1 X79.735 Y138.202 E2.83834
G1 X79.177 Y138.132 E0.01763
G1 X78.651 Y137.933 E0.01763
G1 X78.186 Y137.615 E0.01763
G1 X77.810 Y137.198 E0.01763
G1 X77.487 Y136.553 E0.02260
G1 X77.373 Y135.841 E0.02260
G1 X77.373 Y74.156 E1.93410
G1 X77.444 Y73.598 E0.01763
G1 X77.644 Y73.072 E0.01763
G1 X77.960 Y72.611 E0.01752
G1 X78.377 Y72.235 E0.01763
G1 X78.972 Y71.938 E0.02084
; printing object enclosure_v1-power 3v4.stl id:0 copy 0
;WIPE_START
G1 F8640.000
G1 X79.737 Y71.798 E-0.17972
G1 X82.251 Y71.798 E-0.58028
;WIPE_END
G1 E-0.04000 F2100.000
G1 Z0.600 F10800.000
G1 X104.638 Y80.248
G1 Z0.200
G1 E0.80000 F2100.000
;TYPE:Support material
G1 F1200.000
G1 X104.638 Y83.148 E0.09094
G1 X104.949 Y83.456 E0.01373
G1 X105.118 Y83.578 E0.00652
G1 X105.392 Y83.727 E0.00978
G1 X105.392 Y79.923 E0.11925
G1 X105.786 Y79.791 E0.01303
G1 X106.146 Y79.742 E0.01140
G1 X106.146 Y83.908 E0.13063
G1 X106.198 Y83.911 E0.00163
G1 X106.509 Y83.895 E0.00978
G1 X106.900 Y83.807 E0.01256
G1 X106.900 Y79.843 E0.12429
G1 X107.293 Y80.018 E0.01349
G1 X107.654 Y80.283 E0.01404
G1 X107.654 Y83.591 E0.10371
;WIPE_START
G1 F8640.000
G1 X107.654 Y80.299 E-0.76000
;WIPE_END
G1 E-0.04000 F2100.000
G1 Z0.600 F10800.000
G1 X104.638 Y129.248
G1 Z0.200
G1 E0.80000 F2100.000
G1 F1200.000
G1 X104.638 Y132.148 E0.09094
G1 X104.949 Y132.456 E0.01373
G1 X105.118 Y132.578 E0.00652
G1 X105.392 Y132.727 E0.00977
G1 X105.392 Y128.923 E0.11925
G1 X105.786 Y128.791 E0.01303
G1 X106.146 Y128.742 E0.01140
G1 X106.146 Y132.908 E0.13063
G1 X106.198 Y132.911 E0.00163
G1 X106.509 Y132.895 E0.00978
G1 X106.900 Y132.807 E0.01256
G1 X106.900 Y128.843 E0.12429
G1 X107.293 Y129.018 E0.01349
G1 X107.654 Y129.283 E0.01404
G1 X107.654 Y132.591 E0.10371
;WIPE_START
M73 P0 R124
G1 F8640.000
G1 X107.654 Y129.299 E-0.76000
;WIPE_END
G1 E-0.04000 F2100.000
G1 Z0.600 F10800.000
G1 X164.216 Y126.481
G1 Z0.200
G1 E0.80000 F2100.000
G1 F1200.000
G1 X164.216 Y117.639 E0.27725
G1 X164.970 Y117.639 E0.02365
G1 X164.970 Y126.311 E0.27193
G1 X165.725 Y126.311 E0.02365
G1 X165.725 Y117.639 E0.27193
G1 X166.479 Y117.639 E0.02365
G1 X166.479 Y126.311 E0.27193
G1 X167.233 Y126.311 E0.02365
G1 X167.233 Y117.639 E0.27193
G1 X167.987 Y117.639 E0.02365
G1 X167.987 Y126.311 E0.27193
G1 X168.741 Y126.311 E0.02365
G1 X168.741 Y117.639 E0.27193
G1 X169.495 Y117.639 E0.02365
G1 X169.495 Y126.311 E0.27193
G1 X170.250 Y126.311 E0.02365
G1 X170.250 Y117.639 E0.27193
G1 X170.421 Y117.639 E0.00539
G1 X170.664 Y117.396 E0.01074
G1 X170.664 Y113.619 E0.11844
G1 X171.004 Y113.619 E0.01067
G1 X171.004 Y131.148 E0.54963
G1 X171.758 Y131.148 E0.02365
G1 X171.758 Y113.619 E0.54963
G1 X172.512 Y113.619 E0.02365
G1 X172.512 Y131.148 E0.54963
G1 X173.266 Y131.148 E0.02365
G1 X173.266 Y113.619 E0.54963
G1 X174.020 Y113.619 E0.02365
G1 X174.020 Y131.318 E0.55495
;WIPE_START
G1 F8640.000
G1 X174.020 Y128.027 E-0.76000
;WIPE_END
G1 E-0.04000 F2100.000
G1 Z0.600 F10800.000
G1 X126.484 Y98.424
G1 Z0.200
G1 E0.80000 F2100.000
;TYPE:External perimeter
G1 F1200.000
G1 X139.571 Y83.687 E0.61796
G1 X139.821 Y83.456 E0.01066
G1 X140.092 Y83.252 E0.01066
G1 X140.383 Y83.075 E0.01066
G1 X140.689 Y82.929 E0.01066
G1 X141.009 Y82.813 E0.01066
G1 X141.342 Y82.730 E0.01075
G1 X141.860 Y82.668 E0.01636
G1 X142.354 Y82.682 E0.01551
G1 X142.854 Y82.772 E0.01591
G1 X143.197 Y82.880 E0.01129
G1 X143.643 Y83.083 E0.01536
G1 X143.949 Y83.273 E0.01129
G1 X144.330 Y83.580 E0.01536
G1 X144.580 Y83.839 E0.01129
G1 X144.874 Y84.231 E0.01536
G1 X145.052 Y84.544 E0.01129
G1 X145.241 Y84.998 E0.01543
G1 X145.365 Y85.490 E0.01591
G1 X145.408 Y85.848 E0.01130
G1 X145.406 Y86.340 E0.01542
G1 X145.329 Y86.841 E0.01591
G1 X145.229 Y87.187 E0.01130
G1 X145.037 Y87.637 E0.01534
G1 X144.864 Y87.936 E0.01082
G1 X144.563 Y88.331 E0.01558
G1 X131.584 Y102.952 E0.61299
G1 X131.643 Y103.388 E0.01380
G1 X131.660 Y103.819 E0.01350
G1 X131.660 Y129.833 E0.81565
G1 X131.634 Y130.361 E0.01657
G1 X131.600 Y130.633 E0.00861
G1 X131.494 Y131.156 E0.01674
G1 X131.413 Y131.441 E0.00927
G1 X131.237 Y131.924 E0.01613
G1 X131.003 Y132.409 E0.01689
G1 X130.723 Y132.869 E0.01689
G1 X130.398 Y133.299 E0.01689
G1 X130.032 Y133.694 E0.01689
G1 X129.628 Y134.051 E0.01689
G1 X129.191 Y134.366 E0.01689
G1 X128.724 Y134.636 E0.01691
G1 X128.210 Y134.865 E0.01766
G1 X127.710 Y135.015 E0.01634
G1 X127.415 Y135.068 E0.00940
G1 X126.910 Y135.115 E0.01593
G1 X126.369 Y135.136 E0.01696
G1 X125.611 Y135.117 E0.02376
G1 X125.080 Y135.067 E0.01672
G1 X124.529 Y134.945 E0.01772
G1 X124.020 Y134.753 E0.01706
G1 X123.560 Y134.519 E0.01618
G1 X123.307 Y134.365 E0.00929
G1 X122.891 Y134.066 E0.01606
G1 X122.664 Y133.876 E0.00928
G1 X122.297 Y133.519 E0.01606
G1 X122.101 Y133.297 E0.00928
G1 X121.792 Y132.889 E0.01606
G1 X121.630 Y132.641 E0.00928
G1 X121.385 Y132.191 E0.01606
G1 X121.263 Y131.922 E0.00928
G1 X121.087 Y131.441 E0.01605
G1 X121.006 Y131.157 E0.00927
G1 X120.904 Y130.654 E0.01607
G1 X120.866 Y130.361 E0.00928
G1 X120.840 Y129.833 E0.01658
G1 X120.840 Y103.817 E0.81569
G1 X120.865 Y103.300 E0.01625
G1 X120.942 Y102.777 E0.01657
G1 X121.149 Y102.021 E0.02456
G1 X121.349 Y101.534 E0.01650
G1 X121.479 Y101.276 E0.00907
G1 X121.735 Y100.844 E0.01574
G1 X122.047 Y100.418 E0.01657
G1 X122.585 Y99.845 E0.02464
G1 X123.200 Y99.356 E0.02464
G1 X123.651 Y99.080 E0.01657
G1 X124.126 Y98.849 E0.01657
G1 X124.870 Y98.593 E0.02464
G1 X125.642 Y98.449 E0.02464
G1 X126.169 Y98.415 E0.01655
G1 X126.425 Y98.422 E0.00801
G1 X126.465 Y98.025 F10800.000
;WIPE_START
G1 F8640.000
G1 X128.616 Y95.966 E-0.76000
;WIPE_END
G1 E-0.04000 F2100.000
G1 Z0.600 F10800.000
G1 X108.034 Y128.063
G1 Z0.200
G1 E0.80000 F2100.000
;TYPE:Perimeter
G1 F1200.000
G1 X108.300 Y128.254 E0.01028
G1 X108.546 Y128.471 E0.01028
G1 X108.769 Y128.712 E0.01028
G1 X108.967 Y128.973 E0.01028
G1 X109.137 Y129.253 E0.01028
G1 X109.280 Y129.548 E0.01028
G1 X109.392 Y129.856 E0.01028
G1 X109.475 Y130.181 E0.01053
G1 X109.534 Y130.664 E0.01524
G1 X109.534 Y130.989 E0.01020
G1 X109.501 Y131.315 E0.01027
G1 X109.436 Y131.636 E0.01028
G1 X109.340 Y131.950 E0.01028
G1 X109.212 Y132.252 E0.01028
G1 X109.056 Y132.539 E0.01028
G1 X108.871 Y132.810 E0.01028
G1 X108.660 Y133.061 E0.01028
G1 X108.426 Y133.290 E0.01028
G1 X108.169 Y133.495 E0.01028
G1 X107.894 Y133.672 E0.01028
G1 X107.602 Y133.822 E0.01028
G1 X107.297 Y133.942 E0.01028
G1 X106.982 Y134.030 E0.01028
G1 X106.659 Y134.087 E0.01028
G1 X106.332 Y134.112 E0.01028
G1 X106.004 Y134.104 E0.01028
G1 X105.679 Y134.063 E0.01028
G1 X105.360 Y133.990 E0.01028
G1 X105.049 Y133.886 E0.01028
G1 X104.750 Y133.751 E0.01028
G1 X104.466 Y133.587 E0.01028
G1 X104.200 Y133.396 E0.01028
G1 X103.954 Y133.179 E0.01028
G1 X103.731 Y132.938 E0.01028
G1 X103.533 Y132.677 E0.01028
G1 X103.363 Y132.397 E0.01028
G1 X103.220 Y132.102 E0.01028
G1 X103.108 Y131.794 E0.01028
G1 X103.025 Y131.469 E0.01053
G1 X102.966 Y130.986 E0.01524
G1 X102.966 Y130.661 E0.01020
G1 X102.999 Y130.335 E0.01027
G1 X103.064 Y130.014 E0.01028
G1 X103.160 Y129.700 E0.01028
G1 X103.288 Y129.398 E0.01028
G1 X103.444 Y129.111 E0.01028
G1 X103.629 Y128.840 E0.01028
G1 X103.840 Y128.589 E0.01028
G1 X104.074 Y128.360 E0.01028
G1 X104.331 Y128.155 E0.01028
G1 X104.606 Y127.978 E0.01028
G1 X104.898 Y127.828 E0.01028
G1 X105.203 Y127.708 E0.01028
G1 X105.518 Y127.620 E0.01028
G1 X105.841 Y127.563 E0.01028
G1 X106.168 Y127.538 E0.01028
G1 X106.496 Y127.546 E0.01028
G1 X106.821 Y127.587 E0.01028
G1 X107.140 Y127.660 E0.01028
G1 X107.451 Y127.764 E0.01028
G1 X107.750 Y127.899 E0.01028
G1 X107.982 Y128.033 E0.00840
G1 X107.793 Y128.360 F10800.000
;TYPE:External perimeter
G1 F1200.000
G1 X108.065 Y128.550 E0.01038
G1 X108.282 Y128.742 E0.00910
G1 X108.479 Y128.954 E0.00910
G1 X108.655 Y129.186 E0.00910
G1 X108.806 Y129.433 E0.00910
G1 X108.932 Y129.695 E0.00910
G1 X109.031 Y129.967 E0.00910
G1 X109.103 Y130.251 E0.00919
G1 X109.157 Y130.687 E0.01376
G1 X109.157 Y130.970 E0.00889
G1 X109.128 Y131.259 E0.00909
G1 X109.070 Y131.543 E0.00910
G1 X108.985 Y131.820 E0.00910
G1 X108.872 Y132.088 E0.00910
G1 X108.733 Y132.343 E0.00910
G1 X108.570 Y132.582 E0.00910
G1 X108.383 Y132.805 E0.00910
G1 X108.176 Y133.007 E0.00910
G1 X107.949 Y133.188 E0.00910
G1 X107.705 Y133.345 E0.00910
G1 X107.447 Y133.478 E0.00910
G1 X107.177 Y133.584 E0.00910
G1 X106.898 Y133.662 E0.00910
G1 X106.612 Y133.713 E0.00910
G1 X106.323 Y133.734 E0.00910
G1 X106.033 Y133.727 E0.00910
G1 X105.745 Y133.691 E0.00910
G1 X105.462 Y133.627 E0.00910
G1 X105.187 Y133.534 E0.00910
G1 X104.922 Y133.415 E0.00910
G1 X104.671 Y133.270 E0.00910
G1 X104.435 Y133.100 E0.00910
G1 X104.218 Y132.908 E0.00910
G1 X104.021 Y132.696 E0.00910
G1 X103.845 Y132.464 E0.00910
G1 X103.694 Y132.217 E0.00910
G1 X103.568 Y131.955 E0.00910
G1 X103.469 Y131.683 E0.00910
G1 X103.397 Y131.399 E0.00919
G1 X103.343 Y130.963 E0.01376
G1 X103.343 Y130.680 E0.00889
G1 X103.372 Y130.391 E0.00909
G1 X103.430 Y130.107 E0.00910
G1 X103.515 Y129.830 E0.00910
G1 X103.628 Y129.562 E0.00910
G1 X103.767 Y129.307 E0.00910
G1 X103.930 Y129.068 E0.00910
G1 X104.117 Y128.845 E0.00910
G1 X104.324 Y128.643 E0.00910
G1 X104.551 Y128.462 E0.00910
G1 X104.795 Y128.305 E0.00910
G1 X105.053 Y128.172 E0.00910
G1 X105.323 Y128.066 E0.00910
G1 X105.602 Y127.988 E0.00910
G1 X105.888 Y127.937 E0.00910
G1 X106.177 Y127.916 E0.00910
G1 X106.467 Y127.923 E0.00910
G1 X106.755 Y127.959 E0.00910
G1 X107.038 Y128.023 E0.00910
G1 X107.313 Y128.116 E0.00910
G1 X107.741 Y128.330 E0.01500
G1 X108.084 Y128.201 F10800.000
;WIPE_START
G1 F8640.000
G1 X108.065 Y128.550 E-0.09027
G1 X108.282 Y128.742 E-0.06699
G1 X108.479 Y128.954 E-0.06699
G1 X108.655 Y129.186 E-0.06699
G1 X108.806 Y129.433 E-0.06699
G1 X108.932 Y129.695 E-0.06699
G1 X109.031 Y129.967 E-0.06699
G1 X109.103 Y130.251 E-0.06765
G1 X109.157 Y130.687 E-0.10135
G1 X109.157 Y130.970 E-0.06544
G1 X109.142 Y131.114 E-0.03333
;WIPE_END
G1 E-0.04000 F2100.000
G1 Z0.600 F10800.000
G1 X88.299 Y130.411
G1 Z0.200
G1 E0.80000 F2100.000
;TYPE:Perimeter
G1 F1200.000
G1 X88.340 Y130.825 E0.01305
G1 X88.299 Y131.239 E0.01305
G1 X88.176 Y131.637 E0.01305
G1 X87.977 Y132.002 E0.01305
G1 X87.709 Y132.321 E0.01305
G1 X87.384 Y132.581 E0.01305
G1 X87.014 Y132.770 E0.01303
G1 X86.631 Y132.879 E0.01249
G1 X86.296 Y132.914 E0.01056
G1 X85.887 Y132.883 E0.01286
G1 X85.486 Y132.771 E0.01305
G1 X85.116 Y132.581 E0.01305
G1 X84.791 Y132.321 E0.01305
G1 X84.523 Y132.002 E0.01305
G1 X84.324 Y131.637 E0.01305
G1 X84.201 Y131.239 E0.01305
G1 X84.160 Y130.825 E0.01305
G1 X84.201 Y130.411 E0.01305
G1 X84.324 Y130.013 E0.01305
G1 X84.523 Y129.648 E0.01303
G1 X84.778 Y129.342 E0.01249
G1 X85.035 Y129.125 E0.01056
G1 X85.390 Y128.920 E0.01285
G1 X85.785 Y128.787 E0.01305
G1 X86.198 Y128.736 E0.01305
G1 X86.613 Y128.767 E0.01305
G1 X87.014 Y128.879 E0.01305
G1 X87.384 Y129.069 E0.01305
G1 X87.709 Y129.329 E0.01305
G1 X87.977 Y129.648 E0.01305
G1 X88.176 Y130.013 E0.01305
G1 X88.281 Y130.354 E0.01117
G1 X87.921 Y130.465 F10800.000
;TYPE:External perimeter
G1 F1200.000
G1 X87.961 Y130.825 E0.01137
G1 X87.927 Y131.164 E0.01068
G1 X87.827 Y131.490 E0.01068
G1 X87.664 Y131.789 E0.01068
G1 X87.445 Y132.050 E0.01068
G1 X87.178 Y132.262 E0.01068
G1 X86.875 Y132.418 E0.01068
G1 X86.559 Y132.507 E0.01030
G1 X86.290 Y132.535 E0.00848
G1 X85.953 Y132.510 E0.01061
G1 X85.625 Y132.418 E0.01068
G1 X85.322 Y132.262 E0.01068
G1 X85.055 Y132.050 E0.01068
G1 X84.836 Y131.789 E0.01068
G1 X84.673 Y131.490 E0.01068
G1 X84.573 Y131.164 E0.01068
G1 X84.539 Y130.825 E0.01068
G1 X84.573 Y130.486 E0.01068
G1 X84.673 Y130.160 E0.01068
G1 X84.836 Y129.861 E0.01068
G1 X85.047 Y129.609 E0.01030
G1 X85.253 Y129.435 E0.00848
G1 X85.546 Y129.265 E0.01061
G1 X85.869 Y129.157 E0.01068
G1 X86.207 Y129.114 E0.01068
G1 X86.547 Y129.140 E0.01068
G1 X86.875 Y129.232 E0.01068
G1 X87.178 Y129.388 E0.01068
G1 X87.445 Y129.600 E0.01068
G1 X87.664 Y129.861 E0.01068
G1 X87.827 Y130.160 E0.01068
G1 X87.903 Y130.407 E0.00810
G1 X88.265 Y130.577 F10800.000
;WIPE_START
G1 F8640.000
G1 X87.961 Y130.825 E-0.09737
G1 X87.927 Y131.164 E-0.07868
G1 X87.827 Y131.490 E-0.07868
G1 X87.664 Y131.789 E-0.07868
G1 X87.445 Y132.050 E-0.07868
G1 X87.178 Y132.262 E-0.07868
G1 X86.875 Y132.418 E-0.07862
G1 X86.559 Y132.507 E-0.07583
G1 X86.290 Y132.535 E-0.06245
G1 X86.064 Y132.518 E-0.05234
;WIPE_END
G1 E-0.04000 F2100.000
G1 Z0.600 F10800.000
G1 X86.302 Y83.914
G1 Z0.200
G1 E0.80000 F2100.000
;TYPE:Perimeter
G1 F1200.000
G1 X85.887 Y83.883 E0.01305
G1 X85.486 Y83.771 E0.01305
G1 X85.116 Y83.581 E0.01305
G1 X84.791 Y83.321 E0.01305
G1 X84.523 Y83.002 E0.01305
G1 X84.324 Y82.637 E0.01305
G1 X84.201 Y82.239 E0.01305
G1 X84.160 Y81.825 E0.01305
G1 X84.201 Y81.411 E0.01305
G1 X84.324 Y81.013 E0.01305
G1 X84.523 Y80.648 E0.01303
G1 X84.778 Y80.342 E0.01249
G1 X85.035 Y80.125 E0.01056
G1 X85.390 Y79.920 E0.01285
G1 X85.785 Y79.787 E0.01305
G1 X86.198 Y79.736 E0.01305
G1 X86.613 Y79.767 E0.01305
G1 X87.014 Y79.879 E0.01305
G1 X87.384 Y80.069 E0.01305
G1 X87.709 Y80.329 E0.01305
G1 X87.977 Y80.648 E0.01305
G1 X88.176 Y81.013 E0.01305
G1 X88.299 Y81.411 E0.01305
G1 X88.340 Y81.825 E0.01305
G1 X88.299 Y82.239 E0.01305
G1 X88.176 Y82.637 E0.01305
G1 X87.977 Y83.002 E0.01303
G1 X87.722 Y83.308 E0.01249
G1 X87.465 Y83.525 E0.01056
G1 X87.110 Y83.730 E0.01285
G1 X86.715 Y83.863 E0.01305
G1 X86.362 Y83.907 E0.01117
G1 X86.315 Y83.533 F10800.000
;TYPE:External perimeter
G1 F1200.000
G1 X85.953 Y83.510 E0.01137
G1 X85.625 Y83.418 E0.01068
G1 X85.322 Y83.262 E0.01068
G1 X85.055 Y83.050 E0.01068
G1 X84.836 Y82.789 E0.01068
G1 X84.673 Y82.490 E0.01068
G1 X84.573 Y82.164 E0.01068
G1 X84.539 Y81.825 E0.01068
G1 X84.573 Y81.486 E0.01068
G1 X84.673 Y81.160 E0.01068
G1 X84.836 Y80.861 E0.01068
G1 X85.047 Y80.609 E0.01030
G1 X85.253 Y80.435 E0.00848
G1 X85.546 Y80.265 E0.01061
G1 X85.869 Y80.157 E0.01068
G1 X86.207 Y80.114 E0.01068
G1 X86.547 Y80.140 E0.01068
