; generated by PrusaSlicer 2.3.1+win64 on 2022-12-08 at 16:23:17 UTC

; 

; external perimeters extrusion width = 0.45mm
; perimeters extrusion width = 0.45mm
; infill extrusion width = 0.45mm
; solid infill extrusion width = 0.45mm
; top infill extrusion width = 0.40mm
; support material extrusion width = 0.35mm
; first layer extrusion width = 0.42mm

M73 P0 R149
M73 Q0 S151
M201 X1000 Y1000 Z200 E5000 ; sets maximum accelerations, mm/sec^2
M203 X200 Y200 Z12 E120 ; sets maximum feedrates, mm/sec
M204 P1250 R1250 T1250 ; sets acceleration (P, T) and retract acceleration (R), mm/sec^2
M205 X8.00 Y8.00 Z0.40 E4.50 ; sets the jerk limits, mm/sec
M205 S0 T0 ; sets the minimum extruding and travel feed rate, mm/sec
M107
;TYPE:Custom
M862.3 P "MK3S" ; printer model check
M862.1 P0.4 ; nozzle diameter check
M115 U3.11.0 ; tell printer latest fw version
G90 ; use absolute coordinates
M83 ; extruder relative mode
M104 S215 ; set extruder temp
M140 S60 ; set bed temp
M190 S60 ; wait for bed temp
M109 S215 ; wait for extruder temp
G28 W ; home all without mesh bed level
G80 ; mesh bed leveling
G1 Y-3.0 F1000.0 ; go outside print area
G92 E0.0
G1 X60.0 E9.0 F1000.0 ; intro line
G1 X100.0 E12.5 F1000.0 ; intro line
G92 E0.0
M221 S95

; Don't change E values below. Excessive value can damage the printer.
M907 E430 ; set extruder motor current
G21 ; set units to millimeters
G90 ; use absolute coordinates
M83 ; use relative distances for extrusion
M900 K0.05 ; Filament gcode LA 1.5
M900 K30 ; Filament gcode LA 1.0
;LAYER_CHANGE
;Z:0.2
;HEIGHT:0.2
;BEFORE_LAYER_CHANGE
G92 E0.0
;0.2


G1 E-0.80000 F2100.000
G1 Z0.400 F10800.000
;AFTER_LAYER_CHANGE
;0.2
G1 X79.025 Y71.911
G1 Z0.200
G1 E0.80000 F2100.000
M204 S1000
;TYPE:Skirt
;WIDTH:0.42
G1 F1200.000
G1 X79.737 Y71.798 E0.02260
G1 X170.254 Y71.798 E2.83808
G1 X171.152 Y71.976 E0.02872
G1 X171.914 Y72.478 E0.02860
G1 X172.431 Y73.230 E0.02860
G1 X172.627 Y74.124 E0.02872
G1 X172.627 Y135.863 E1.93577
G1 X172.553 Y136.413 E0.01740
G1 X172.352 Y136.934 E0.01752
G1 X172.035 Y137.394 E0.01752
G1 X171.623 Y137.765 E0.01740
G1 X170.975 Y138.089 E0.02272
G1 X170.263 Y138.202 E0.02260
G1 X79.735 Y138.202 E2.83843
G1 X79.177 Y138.132 E0.01763
G1 X78.651 Y137.933 E0.01763
G1 X78.186 Y137.615 E0.01763
G1 X77.810 Y137.198 E0.01763
G1 X77.487 Y136.553 E0.02260
G1 X77.373 Y135.841 E0.02260
G1 X77.373 Y74.156 E1.93410
G1 X77.444 Y73.598 E0.01763
G1 X77.644 Y73.072 E0.01763
G1 X77.960 Y72.611 E0.01752
G1 X78.377 Y72.235 E0.01763
G1 X78.972 Y71.938 E0.02084
; printing object enclosure_v1-top 1v4.stl id:0 copy 0
;WIPE_START
G1 F8640.000
G1 X79.737 Y71.798 E-0.17972
G1 X82.251 Y71.798 E-0.58028
;WIPE_END
G1 E-0.04000 F2100.000
G1 Z0.600 F10800.000
G1 X111.425 Y125.431
G1 Z0.200
G1 E0.80000 F2100.000
;TYPE:Support material
G1 F1200.000
G1 X111.425 Y120.572 E0.15235
G1 X110.671 Y120.572 E0.02365
G1 X110.671 Y125.261 E0.14703
G1 X109.917 Y125.261 E0.02365
G1 X109.917 Y120.572 E0.14703
G1 X109.163 Y120.572 E0.02365
G1 X109.163 Y125.261 E0.14703
G1 X108.409 Y125.261 E0.02365
G1 X108.409 Y120.572 E0.14703
G1 X107.654 Y120.572 E0.02365
G1 X107.654 Y125.261 E0.14703
G1 X106.900 Y125.261 E0.02365
G1 X106.900 Y120.572 E0.14703
G1 X106.146 Y120.572 E0.02365
G1 X106.146 Y125.261 E0.14703
G1 X105.392 Y125.261 E0.02365
G1 X105.392 Y120.572 E0.14703
M73 Q0 S150
G1 X104.638 Y120.572 E0.02365
G1 X104.638 Y125.261 E0.14703
G1 X103.884 Y125.261 E0.02365
G1 X103.884 Y120.572 E0.14703
G1 X103.129 Y120.572 E0.02365
G1 X103.129 Y125.261 E0.14703
G1 X102.375 Y125.261 E0.02365
G1 X102.375 Y120.572 E0.14703
G1 X101.621 Y120.572 E0.02365
G1 X101.621 Y125.431 E0.15235
;WIPE_START
G1 F8640.000
G1 X101.621 Y122.140 E-0.76000
;WIPE_END
G1 E-0.04000 F2100.000
G1 Z0.600 F10800.000
G1 X117.298 Y75.888
G1 Z0.200
G1 E0.80000 F2100.000
;TYPE:Perimeter
G1 F1200.000
G1 X142.834 Y75.888 E0.80066
G1 X142.859 Y76.899 E0.03171
G1 X142.943 Y77.587 E0.02174
G1 X143.127 Y78.256 E0.02174
G1 X143.306 Y78.690 E0.01473
G1 X143.524 Y79.098 E0.01450
G1 X143.924 Y79.665 E0.02176
G1 X144.234 Y80.007 E0.01447
G1 X144.577 Y80.318 E0.01450
G1 X144.948 Y80.593 E0.01450
G1 X145.351 Y80.834 E0.01473
G1 X145.756 Y81.026 E0.01405
G1 X146.205 Y81.187 E0.01495
G1 X146.875 Y81.336 E0.02151
G1 X147.576 Y81.388 E0.02204
G1 X162.603 Y81.388 E0.47117
G1 X162.603 Y126.462 E1.41327
M73 P0 R148
G1 X137.849 Y126.474 E0.77614
G1 X137.424 Y126.558 E0.01359
G1 X137.023 Y126.724 E0.01360
G1 X136.837 Y126.836 E0.00681
G1 X136.502 Y127.111 E0.01360
G1 X136.227 Y127.446 E0.01360
G1 X136.022 Y127.828 E0.01360
G1 X135.952 Y128.026 E0.00658
G1 X135.880 Y128.346 E0.01028
G1 X135.815 Y129.462 E0.03505
G1 X124.317 Y129.462 E0.36053
G1 X124.252 Y128.346 E0.03505
G1 X124.181 Y128.026 E0.01028
G1 X124.110 Y127.828 E0.00658
G1 X123.905 Y127.446 E0.01360
G1 X123.630 Y127.111 E0.01360
G1 X123.295 Y126.836 E0.01360
G1 X123.109 Y126.724 E0.00681
G1 X122.708 Y126.558 E0.01360
G1 X122.283 Y126.474 E0.01359
G1 X97.529 Y126.462 E0.77614
G1 X97.529 Y81.388 E1.41327
G1 X112.556 Y81.388 E0.47117
G1 X113.257 Y81.336 E0.02204
G1 X113.718 Y81.245 E0.01473
G1 X114.376 Y81.026 E0.02174
G1 X114.581 Y80.935 E0.00703
G1 X115.184 Y80.593 E0.02174
G1 X115.555 Y80.318 E0.01450
G1 X115.903 Y80.002 E0.01473
G1 X116.351 Y79.482 E0.02151
G1 X116.719 Y78.903 E0.02151
G1 X116.920 Y78.478 E0.01473
G1 X117.075 Y78.043 E0.01450
G1 X117.226 Y77.374 E0.02151
G1 X117.273 Y76.899 E0.01495
G1 X117.297 Y75.948 E0.02983
G1 X117.666 Y76.265 F10800.000
;TYPE:External perimeter
G1 F1200.000
G1 X142.466 Y76.265 E0.77759
G1 X142.482 Y76.922 E0.02061
G1 X142.532 Y77.424 E0.01582
G1 X142.696 Y78.155 E0.02348
G1 X142.965 Y78.851 E0.02340
G1 X143.200 Y79.292 E0.01566
G1 X143.479 Y79.709 E0.01574
G1 X143.967 Y80.274 E0.02340
G1 X144.337 Y80.609 E0.01566
G1 X144.738 Y80.907 E0.01566
G1 X145.390 Y81.276 E0.02348
G1 X146.091 Y81.546 E0.02356
G1 X146.819 Y81.710 E0.02340
G1 X147.571 Y81.765 E0.02364
G1 X162.226 Y81.765 E0.45950
G1 X162.226 Y126.085 E1.38962
G1 X138.074 Y126.085 E0.75728
G1 X137.812 Y126.098 E0.00821
G1 X137.314 Y126.197 E0.01592
G1 X136.845 Y126.391 E0.01592
G1 X136.423 Y126.673 E0.01592
G1 X136.064 Y127.032 E0.01592
G1 X135.782 Y127.454 E0.01592
G1 X135.589 Y127.921 E0.01584
G1 X135.505 Y128.293 E0.01197
G1 X135.459 Y129.085 E0.02486
G1 X124.673 Y129.085 E0.33821
G1 X124.627 Y128.293 E0.02486
G1 X124.543 Y127.921 E0.01197
G1 X124.350 Y127.454 E0.01584
G1 X124.068 Y127.032 E0.01592
G1 X123.709 Y126.673 E0.01592
G1 X123.287 Y126.391 E0.01592
G1 X122.818 Y126.197 E0.01592
G1 X122.320 Y126.098 E0.01592
G1 X122.058 Y126.085 E0.00821
G1 X97.906 Y126.085 E0.75728
G1 X97.906 Y81.765 E1.38962
G1 X112.561 Y81.765 E0.45950
G1 X113.313 Y81.710 E0.02364
G1 X113.805 Y81.612 E0.01574
G1 X114.516 Y81.376 E0.02348
G1 X114.742 Y81.276 E0.00775
G1 X115.394 Y80.907 E0.02348
G1 X115.795 Y80.609 E0.01566
G1 X116.167 Y80.272 E0.01574
G1 X116.654 Y79.707 E0.02340
G1 X117.054 Y79.077 E0.02340
G1 X117.268 Y78.623 E0.01574
G1 X117.437 Y78.152 E0.01566
G1 X117.600 Y77.424 E0.02340
G1 X117.650 Y76.922 E0.01582
G1 X117.665 Y76.325 E0.01873
G1 X117.674 Y75.865 F10800.000
;WIPE_START
G1 F8640.000
G1 X120.956 Y76.317 E-0.76000
;WIPE_END
G1 E-0.04000 F2100.000
G1 Z0.600 F10800.000
G1 X102.971 Y77.829
G1 Z0.200
G1 E0.80000 F2100.000
;TYPE:Perimeter
G1 F1200.000
G1 X103.005 Y78.158 E0.01038
G1 X102.983 Y78.470 E0.00981
G1 X102.889 Y78.839 E0.01192
G1 X102.721 Y79.187 E0.01211
G1 X102.488 Y79.495 E0.01211
G1 X102.199 Y79.750 E0.01211
G1 X101.864 Y79.943 E0.01211
G1 X101.498 Y80.066 E0.01211
G1 X101.114 Y80.114 E0.01211
G1 X100.729 Y80.086 E0.01211
G1 X100.357 Y79.981 E0.01211
G1 X100.013 Y79.805 E0.01211
G1 X99.717 Y79.568 E0.01188
G1 X99.516 Y79.340 E0.00955
G1 X99.318 Y79.017 E0.01188
G1 X99.186 Y78.654 E0.01211
G1 X99.128 Y78.272 E0.01211
G1 X99.148 Y77.886 E0.01211
G1 X99.243 Y77.511 E0.01211
G1 X99.411 Y77.163 E0.01211
G1 X99.644 Y76.855 E0.01211
G1 X99.934 Y76.600 E0.01211
G1 X100.268 Y76.407 E0.01211
G1 X100.634 Y76.284 E0.01211
G1 X101.018 Y76.236 E0.01211
G1 X101.403 Y76.264 E0.01211
G1 X101.775 Y76.369 E0.01211
G1 X102.119 Y76.545 E0.01211
G1 X102.421 Y76.786 E0.01211
G1 X102.669 Y77.082 E0.01211
G1 X102.854 Y77.421 E0.01211
G1 X102.961 Y77.770 E0.01143
G1 X102.596 Y77.865 F10800.000
;TYPE:External perimeter
G1 F1200.000
G1 X102.627 Y78.164 E0.00941
G1 X102.609 Y78.410 E0.00773
G1 X102.533 Y78.709 E0.00968
G1 X102.398 Y78.989 E0.00975
G1 X102.210 Y79.237 E0.00975
G1 X101.977 Y79.443 E0.00975
G1 X101.708 Y79.598 E0.00975
G1 X101.413 Y79.697 E0.00975
G1 X101.105 Y79.736 E0.00975
G1 X100.795 Y79.712 E0.00975
G1 X100.496 Y79.628 E0.00975
G1 X100.219 Y79.486 E0.00975
G1 X99.978 Y79.294 E0.00966
G1 X99.820 Y79.115 E0.00748
G1 X99.660 Y78.852 E0.00966
G1 X99.553 Y78.560 E0.00975
G1 X99.507 Y78.253 E0.00975
G1 X99.522 Y77.942 E0.00975
G1 X99.599 Y77.641 E0.00975
G1 X99.734 Y77.361 E0.00975
G1 X99.922 Y77.113 E0.00975
G1 X100.155 Y76.907 E0.00975
G1 X100.424 Y76.752 E0.00975
G1 X100.719 Y76.653 E0.00975
G1 X101.027 Y76.614 E0.00975
G1 X101.337 Y76.638 E0.00975
G1 X101.636 Y76.722 E0.00975
G1 X101.913 Y76.864 E0.00975
G1 X102.156 Y77.057 E0.00975
G1 X102.356 Y77.296 E0.00975
G1 X102.505 Y77.569 E0.00975
G1 X102.578 Y77.808 E0.00786
G1 X102.881 Y77.961 F10800.000
;WIPE_START
G1 F8640.000
G1 X102.627 Y78.164 E-0.08291
G1 X102.609 Y78.410 E-0.05693
G1 X102.533 Y78.709 E-0.07126
G1 X102.398 Y78.989 E-0.07178
G1 X102.210 Y79.237 E-0.07178
G1 X101.977 Y79.443 E-0.07178
G1 X101.708 Y79.598 E-0.07178
G1 X101.413 Y79.697 E-0.07178
G1 X101.105 Y79.736 E-0.07178
G1 X100.795 Y79.712 E-0.07178
G1 X100.601 Y79.658 E-0.04643
;WIPE_END
G1 E-0.04000 F2100.000
G1 Z0.600 F10800.000
G1 X101.018 Y127.236
G1 Z0.200
G1 E0.80000 F2100.000
;TYPE:Perimeter
G1 F1200.000
G1 X101.403 Y127.264 E0.01211
G1 X101.775 Y127.369 E0.01211
G1 X102.119 Y127.545 E0.01211
G1 X102.421 Y127.786 E0.01211
G1 X102.669 Y128.082 E0.01211
G1 X102.854 Y128.421 E0.01211
G1 X102.967 Y128.790 E0.01209
G1 X103.005 Y129.158 E0.01160
G1 X102.983 Y129.470 E0.00981
G1 X102.889 Y129.839 E0.01192
G1 X102.721 Y130.187 E0.01211
G1 X102.488 Y130.495 E0.01211
G1 X102.199 Y130.750 E0.01211
G1 X101.864 Y130.943 E0.01211
G1 X101.498 Y131.066 E0.01211
G1 X101.114 Y131.114 E0.01211
G1 X100.729 Y131.086 E0.01211
G1 X100.357 Y130.981 E0.01211
G1 X100.013 Y130.805 E0.01211
G1 X99.711 Y130.564 E0.01211
G1 X99.464 Y130.268 E0.01209
G1 X99.286 Y129.944 E0.01160
G1 X99.185 Y129.648 E0.00981
G1 X99.128 Y129.272 E0.01192
G1 X99.148 Y128.886 E0.01211
G1 X99.243 Y128.511 E0.01211
G1 X99.411 Y128.163 E0.01211
G1 X99.644 Y127.855 E0.01211
G1 X99.934 Y127.600 E0.01211
G1 X100.268 Y127.407 E0.01211
G1 X100.634 Y127.284 E0.01211
G1 X100.958 Y127.243 E0.01023
G1 X101.005 Y127.617 F10800.000
;TYPE:External perimeter
G1 F1200.000
G1 X101.337 Y127.638 E0.01043
G1 X101.636 Y127.722 E0.00975
G1 X101.913 Y127.864 E0.00975
G1 X102.156 Y128.057 E0.00975
G1 X102.356 Y128.296 E0.00975
G1 X102.505 Y128.569 E0.00975
G1 X102.596 Y128.865 E0.00974
G1 X102.627 Y129.164 E0.00941
G1 X102.609 Y129.410 E0.00773
G1 X102.533 Y129.709 E0.00968
G1 X102.398 Y129.989 E0.00975
G1 X102.210 Y130.237 E0.00975
G1 X101.977 Y130.443 E0.00975
G1 X101.708 Y130.598 E0.00975
G1 X101.413 Y130.697 E0.00975
G1 X101.105 Y130.736 E0.00975
G1 X100.795 Y130.712 E0.00975
G1 X100.496 Y130.628 E0.00975
G1 X100.219 Y130.486 E0.00975
G1 X99.976 Y130.293 E0.00975
G1 X99.776 Y130.055 E0.00974
G1 X99.632 Y129.791 E0.00941
G1 X99.553 Y129.558 E0.00773
G1 X99.507 Y129.253 E0.00968
G1 X99.522 Y128.942 E0.00975
G1 X99.599 Y128.641 E0.00975
G1 X99.734 Y128.361 E0.00975
G1 X99.922 Y128.113 E0.00975
G1 X100.155 Y127.907 E0.00975
G1 X100.424 Y127.752 E0.00975
G1 X100.719 Y127.653 E0.00975
G1 X100.945 Y127.625 E0.00717
G1 X101.161 Y127.323 F10800.000
;WIPE_START
G1 F8640.000
G1 X101.337 Y127.638 E-0.09048
G1 X101.636 Y127.722 E-0.07178
G1 X101.913 Y127.864 E-0.07178
G1 X102.156 Y128.057 E-0.07178
G1 X102.356 Y128.296 E-0.07178
G1 X102.505 Y128.569 E-0.07178
G1 X102.596 Y128.865 E-0.07173
G1 X102.627 Y129.164 E-0.06928
G1 X102.609 Y129.410 E-0.05693
G1 X102.533 Y129.709 E-0.07126
G1 X102.455 Y129.871 E-0.04142
;WIPE_END
G1 E-0.04000 F2100.000
G1 Z0.600 F10800.000
G1 X157.126 Y129.175
G1 Z0.200
G1 E0.80000 F2100.000
;TYPE:Perimeter
G1 F1200.000
G1 X157.164 Y128.798 E0.01188
G1 X157.246 Y128.505 E0.00955
G1 X157.411 Y128.163 E0.01188
G1 X157.644 Y127.855 E0.01211
G1 X157.934 Y127.600 E0.01211
G1 X158.268 Y127.407 E0.01211
G1 X158.634 Y127.284 E0.01211
G1 X159.018 Y127.236 E0.01211
G1 X159.402 Y127.264 E0.01209
G1 X159.759 Y127.364 E0.01160
G1 X160.041 Y127.499 E0.00981
G1 X160.350 Y127.720 E0.01192
G1 X160.613 Y128.004 E0.01211
G1 X160.814 Y128.333 E0.01211
G1 X160.946 Y128.696 E0.01211
G1 X161.004 Y129.078 E0.01211
G1 X160.984 Y129.464 E0.01211
G1 X160.889 Y129.839 E0.01211
G1 X160.721 Y130.187 E0.01211
G1 X160.488 Y130.495 E0.01211
G1 X160.199 Y130.750 E0.01211
G1 X159.864 Y130.943 E0.01211
G1 X159.498 Y131.066 E0.01211
G1 X159.114 Y131.114 E0.01211
G1 X158.729 Y131.086 E0.01211
G1 X158.357 Y130.981 E0.01211
G1 X158.013 Y130.805 E0.01211
G1 X157.711 Y130.564 E0.01211
G1 X157.463 Y130.268 E0.01211
G1 X157.278 Y129.929 E0.01211
G1 X157.164 Y129.559 E0.01211
G1 X157.132 Y129.235 E0.01023
G1 X157.507 Y129.197 F10800.000
;TYPE:External perimeter
G1 F1200.000
G1 X157.536 Y128.868 E0.01035
G1 X157.600 Y128.639 E0.00748
G1 X157.734 Y128.361 E0.00966
G1 X157.922 Y128.113 E0.00975
G1 X158.155 Y127.907 E0.00975
G1 X158.424 Y127.752 E0.00975
G1 X158.719 Y127.653 E0.00975
G1 X159.027 Y127.614 E0.00975
G1 X159.337 Y127.638 E0.00974
G1 X159.626 Y127.718 E0.00941
G1 X159.848 Y127.824 E0.00773
G1 X160.099 Y128.005 E0.00968
G1 X160.310 Y128.232 E0.00975
G1 X160.473 Y128.498 E0.00975
G1 X160.579 Y128.790 E0.00975
G1 X160.625 Y129.097 E0.00975
G1 X160.610 Y129.408 E0.00975
G1 X160.533 Y129.709 E0.00975
G1 X160.398 Y129.989 E0.00975
G1 X160.210 Y130.237 E0.00975
G1 X159.977 Y130.443 E0.00975
G1 X159.708 Y130.598 E0.00975
G1 X159.413 Y130.697 E0.00975
G1 X159.105 Y130.736 E0.00975
G1 X158.795 Y130.712 E0.00975
G1 X158.496 Y130.628 E0.00975
G1 X158.219 Y130.486 E0.00975
G1 X157.976 Y130.293 E0.00975
G1 X157.776 Y130.054 E0.00975
G1 X157.628 Y129.781 E0.00975
G1 X157.536 Y129.484 E0.00975
G1 X157.513 Y129.257 E0.00717
G1 X157.220 Y129.035 F10800.000
;WIPE_START
G1 F8640.000
G1 X157.536 Y128.868 E-0.08987
G1 X157.600 Y128.639 E-0.05508
G1 X157.734 Y128.361 E-0.07117
G1 X157.922 Y128.113 E-0.07178
G1 X158.155 Y127.907 E-0.07178
G1 X158.424 Y127.752 E-0.07178
G1 X158.719 Y127.653 E-0.07178
G1 X159.027 Y127.614 E-0.07178
G1 X159.337 Y127.638 E-0.07173
G1 X159.626 Y127.718 E-0.06927
G1 X159.798 Y127.800 E-0.04397
;WIPE_END
G1 E-0.04000 F2100.000
G1 Z0.600 F10800.000
G1 X159.114 Y80.114
G1 Z0.200
G1 E0.80000 F2100.000
;TYPE:Perimeter
G1 F1200.000
G1 X158.729 Y80.086 E0.01211
G1 X158.357 Y79.981 E0.01211
G1 X158.013 Y79.805 E0.01211
G1 X157.711 Y79.564 E0.01211
G1 X157.463 Y79.268 E0.01211
G1 X157.278 Y78.929 E0.01211
G1 X157.164 Y78.559 E0.01211
G1 X157.126 Y78.176 E0.01209
G1 X157.162 Y77.807 E0.01160
G1 X157.246 Y77.506 E0.00981
G1 X157.411 Y77.163 E0.01192
G1 X157.644 Y76.855 E0.01211
G1 X157.934 Y76.600 E0.01211
G1 X158.268 Y76.407 E0.01211
G1 X158.634 Y76.284 E0.01211
G1 X159.018 Y76.236 E0.01211
G1 X159.402 Y76.264 E0.01209
G1 X159.759 Y76.364 E0.01160
G1 X160.041 Y76.499 E0.00981
G1 X160.350 Y76.720 E0.01192
G1 X160.613 Y77.004 E0.01211
G1 X160.814 Y77.333 E0.01211
G1 X160.946 Y77.696 E0.01211
G1 X161.004 Y78.078 E0.01211
G1 X160.984 Y78.464 E0.01211
G1 X160.889 Y78.839 E0.01211
G1 X160.721 Y79.187 E0.01211
G1 X160.488 Y79.495 E0.01211
G1 X160.199 Y79.750 E0.01211
G1 X159.864 Y79.943 E0.01211
G1 X159.498 Y80.066 E0.01211
G1 X159.174 Y80.107 E0.01023
G1 X159.127 Y79.733 F10800.000
;TYPE:External perimeter
G1 F1200.000
G1 X158.795 Y79.712 E0.01043
G1 X158.496 Y79.628 E0.00975
G1 X158.219 Y79.486 E0.00975
G1 X157.976 Y79.293 E0.00975
G1 X157.776 Y79.054 E0.00975
G1 X157.628 Y78.781 E0.00975
G1 X157.536 Y78.484 E0.00975
G1 X157.505 Y78.175 E0.00974
G1 X157.534 Y77.877 E0.00941
G1 X157.600 Y77.639 E0.00773
