; generated by PrusaSlicer 2.3.1+win64 on 2022-12-08 at 16:22:54 UTC

; 

; external perimeters extrusion width = 0.45mm
; perimeters extrusion width = 0.45mm
; infill extrusion width = 0.45mm
; solid infill extrusion width = 0.45mm
; top infill extrusion width = 0.40mm
; support material extrusion width = 0.35mm
; first layer extrusion width = 0.42mm

M73 P0 R83
M73 Q0 S83
M201 X1000 Y1000 Z200 E5000 ; sets maximum accelerations, mm/sec^2
M203 X200 Y200 Z12 E120 ; sets maximum feedrates, mm/sec
M204 P1250 R1250 T1250 ; sets acceleration (P, T) and retract acceleration (R), mm/sec^2
M205 X8.00 Y8.00 Z0.40 E4.50 ; sets the jerk limits, mm/sec
M205 S0 T0 ; sets the minimum extruding and travel feed rate, mm/sec
M107
;TYPE:Custom
M862.3 P "MK3S" ; printer model check
M862.1 P0.4 ; nozzle diameter check
M115 U3.11.0 ; tell printer latest fw version
G90 ; use absolute coordinates
M83 ; extruder relative mode
M104 S215 ; set extruder temp
M140 S60 ; set bed temp
M190 S60 ; wait for bed temp
M109 S215 ; wait for extruder temp
G28 W ; home all without mesh bed level
G80 ; mesh bed leveling
G1 Y-3.0 F1000.0 ; go outside print area
G92 E0.0
G1 X60.0 E9.0 F1000.0 ; intro line
M73 P0 R82
G1 X100.0 E12.5 F1000.0 ; intro line
G92 E0.0
M221 S95

; Don't change E values below. Excessive value can damage the printer.
M907 E430 ; set extruder motor current
G21 ; set units to millimeters
G90 ; use absolute coordinates
M83 ; use relative distances for extrusion
M900 K0.05 ; Filament gcode LA 1.5
M900 K30 ; Filament gcode LA 1.0
;LAYER_CHANGE
;Z:0.2
;HEIGHT:0.2
;BEFORE_LAYER_CHANGE
G92 E0.0
;0.2


G1 E-0.80000 F2100.000
G1 Z0.400 F10800.000
;AFTER_LAYER_CHANGE
;0.2
G1 X79.025 Y71.911
G1 Z0.200
G1 E0.80000 F2100.000
M204 S1000
;TYPE:Skirt
;WIDTH:0.42
G1 F1200.000
G1 X79.737 Y71.798 E0.02260
G1 X170.254 Y71.798 E2.83808
G1 X171.152 Y71.976 E0.02872
G1 X171.914 Y72.478 E0.02860
G1 X172.431 Y73.230 E0.02860
G1 X172.627 Y74.124 E0.02872
G1 X172.627 Y135.863 E1.93577
G1 X172.553 Y136.413 E0.01740
G1 X172.352 Y136.934 E0.01752
G1 X172.035 Y137.394 E0.01752
G1 X171.623 Y137.765 E0.01740
G1 X170.975 Y138.089 E0.02272
G1 X170.263 Y138.202 E0.02260
G1 X79.735 Y138.202 E2.83843
G1 X79.177 Y138.132 E0.01763
G1 X78.651 Y137.933 E0.01763
G1 X78.186 Y137.615 E0.01763
G1 X77.810 Y137.198 E0.01763
G1 X77.487 Y136.553 E0.02260
G1 X77.373 Y135.841 E0.02260
G1 X77.373 Y74.156 E1.93410
G1 X77.444 Y73.598 E0.01763
G1 X77.644 Y73.072 E0.01763
G1 X77.960 Y72.611 E0.01752
G1 X78.377 Y72.235 E0.01763
G1 X78.972 Y71.938 E0.02084
; printing object enclosure_v1-frame2v7.stl id:0 copy 0
;WIPE_START
G1 F8640.000
G1 X79.737 Y71.798 E-0.17972
G1 X82.251 Y71.798 E-0.58028
;WIPE_END
G1 E-0.04000 F2100.000
G1 Z0.600 F10800.000
G1 X128.017 Y128.614
G1 Z0.200
G1 E0.80000 F2100.000
;TYPE:Support material
G1 F1200.000
G1 X128.017 Y129.161 E0.01717
G1 X128.560 Y129.161 E0.01703
G1 X128.771 Y128.860 E0.01153
G1 X128.771 Y127.647 E0.03804
G1 X128.832 Y127.541 E0.00383
G1 X129.525 Y127.538 E0.02173
G1 X129.525 Y128.378 E0.02635
;WIPE_START
G1 F8640.000
G1 X129.525 Y127.538 E-0.19404
G1 X128.832 Y127.541 E-0.16004
G1 X128.771 Y127.647 E-0.02820
G1 X128.771 Y128.860 E-0.28015
G1 X128.560 Y129.161 E-0.08489
G1 X128.505 Y129.161 E-0.01268
;WIPE_END
G1 E-0.04000 F2100.000
G1 Z0.600 F10800.000
G1 X131.033 Y131.705
G1 Z0.200
G1 E0.80000 F2100.000
G1 F1200.000
G1 X131.033 Y130.122 E0.04963
G1 X131.122 Y130.100 E0.00287
G1 X131.305 Y130.091 E0.00574
G1 X131.485 Y130.127 E0.00574
G1 X131.649 Y130.206 E0.00574
G1 X131.787 Y130.322 E0.00564
G1 X131.787 Y131.554 E0.03864
;WIPE_START
G1 F8640.000
G1 X131.787 Y130.322 E-0.28458
G1 X131.649 Y130.206 E-0.04151
G1 X131.485 Y130.127 E-0.04228
G1 X131.305 Y130.091 E-0.04228
G1 X131.122 Y130.100 E-0.04228
G1 X131.033 Y130.122 E-0.02112
G1 X131.033 Y131.360 E-0.28594
;WIPE_END
G1 E-0.04000 F2100.000
G1 Z0.600 F10800.000
G1 X134.050 Y129.331
G1 Z0.200
G1 E0.80000 F2100.000
G1 F1200.000
G1 X134.050 Y128.214 E0.03502
G1 X133.641 Y127.518 E0.02532
G1 X133.296 Y127.519 E0.01084
G1 X133.296 Y128.640 E0.03513
;WIPE_START
G1 F8640.000
G1 X133.296 Y127.519 E-0.25869
G1 X133.641 Y127.518 E-0.07983
G1 X134.050 Y128.214 E-0.18646
G1 X134.050 Y129.232 E-0.23502
;WIPE_END
G1 E-0.04000 F2100.000
G1 Z0.600 F10800.000
G1 X106.713 Y128.795
G1 Z0.200
G1 E0.80000 F2100.000
;TYPE:Perimeter
G1 F1200.000
G1 X106.613 Y128.767 E0.00326
G1 X106.198 Y128.736 E0.01305
G1 X105.787 Y128.787 E0.01298
G1 X105.787 Y83.857 E1.40876
G1 X105.894 Y83.884 E0.00347
G1 X106.302 Y83.914 E0.01282
G1 X106.713 Y83.863 E0.01298
G1 X106.713 Y128.735 E1.40693
;WIPE_START
G1 F8640.000
G1 X106.613 Y128.767 E-0.02423
G1 X106.198 Y128.736 E-0.09610
G1 X105.787 Y128.787 E-0.09560
G1 X105.787 Y126.431 E-0.54407
;WIPE_END
G1 E-0.04000 F2100.000
G1 Z0.600 F10800.000
G1 X129.895 Y104.214
G1 Z0.200
G1 E0.80000 F2100.000
G1 F1200.000
G1 X129.647 Y103.918 E0.01209
G1 X129.470 Y103.594 E0.01160
G1 X129.369 Y103.298 E0.00981
G1 X129.312 Y102.922 E0.01192
G1 X129.332 Y102.536 E0.01211
G1 X129.427 Y102.161 E0.01211
G1 X129.595 Y101.813 E0.01211
G1 X129.828 Y101.505 E0.01211
G1 X130.117 Y101.250 E0.01211
G1 X130.452 Y101.057 E0.01211
G1 X130.818 Y100.934 E0.01211
G1 X131.202 Y100.886 E0.01211
G1 X131.587 Y100.914 E0.01211
G1 X131.959 Y101.019 E0.01211
G1 X132.303 Y101.195 E0.01211
G1 X132.605 Y101.436 E0.01211
G1 X132.853 Y101.732 E0.01211
G1 X133.034 Y102.065 E0.01188
G1 X133.131 Y102.354 E0.00955
G1 X133.188 Y102.728 E0.01188
G1 X133.168 Y103.114 E0.01211
G1 X133.073 Y103.489 E0.01211
G1 X132.905 Y103.837 E0.01211
G1 X132.672 Y104.145 E0.01211
G1 X132.383 Y104.400 E0.01211
G1 X132.048 Y104.593 E0.01211
G1 X131.682 Y104.716 E0.01211
G1 X131.298 Y104.764 E0.01211
G1 X130.913 Y104.736 E0.01211
G1 X130.541 Y104.631 E0.01211
G1 X130.197 Y104.455 E0.01211
G1 X129.942 Y104.251 E0.01023
G1 X130.177 Y103.956 F10800.000
;TYPE:External perimeter
G1 F1200.000
G1 X129.960 Y103.705 E0.01042
G1 X129.816 Y103.441 E0.00941
G1 X129.737 Y103.208 E0.00773
G1 X129.691 Y102.903 E0.00968
G1 X129.706 Y102.592 E0.00975
G1 X129.783 Y102.291 E0.00975
G1 X129.918 Y102.011 E0.00975
G1 X130.106 Y101.763 E0.00975
G1 X130.339 Y101.557 E0.00975
G1 X130.608 Y101.402 E0.00975
G1 X130.903 Y101.303 E0.00975
G1 X131.211 Y101.264 E0.00975
G1 X131.521 Y101.288 E0.00975
G1 X131.820 Y101.372 E0.00975
G1 X132.097 Y101.514 E0.00975
G1 X132.340 Y101.707 E0.00975
G1 X132.540 Y101.946 E0.00975
G1 X132.687 Y102.216 E0.00966
G1 X132.763 Y102.442 E0.00748
G1 X132.809 Y102.747 E0.00966
G1 X132.794 Y103.058 E0.00975
G1 X132.717 Y103.359 E0.00975
G1 X132.582 Y103.639 E0.00975
G1 X132.394 Y103.887 E0.00975
G1 X132.161 Y104.093 E0.00975
G1 X131.892 Y104.248 E0.00975
G1 X131.597 Y104.347 E0.00975
G1 X131.289 Y104.386 E0.00975
G1 X130.979 Y104.362 E0.00975
G1 X130.680 Y104.278 E0.00975
G1 X130.403 Y104.136 E0.00975
G1 X130.224 Y103.994 E0.00717
G1 X129.858 Y104.050 F10800.000
;WIPE_START
G1 F8640.000
G1 X129.960 Y103.705 E-0.09042
G1 X129.816 Y103.441 E-0.06927
G1 X129.737 Y103.208 E-0.05694
G1 X129.691 Y102.903 E-0.07126
G1 X129.706 Y102.592 E-0.07178
G1 X129.783 Y102.291 E-0.07178
G1 X129.918 Y102.011 E-0.07178
G1 X130.106 Y101.763 E-0.07178
G1 X130.339 Y101.557 E-0.07178
G1 X130.608 Y101.402 E-0.07178
G1 X130.778 Y101.345 E-0.04142
;WIPE_END
G1 E-0.04000 F2100.000
G1 Z0.600 F10800.000
G1 X131.202 Y128.886
G1 Z0.200
G1 E0.80000 F2100.000
;TYPE:Perimeter
G1 F1200.000
G1 X131.587 Y128.914 E0.01211
G1 X131.959 Y129.019 E0.01211
G1 X132.303 Y129.195 E0.01211
G1 X132.599 Y129.432 E0.01188
G1 X132.800 Y129.660 E0.00955
G1 X132.998 Y129.983 E0.01188
G1 X133.130 Y130.346 E0.01211
G1 X133.188 Y130.728 E0.01211
G1 X133.168 Y131.114 E0.01211
G1 X133.073 Y131.489 E0.01211
G1 X132.905 Y131.837 E0.01211
G1 X132.672 Y132.145 E0.01211
G1 X132.383 Y132.400 E0.01211
G1 X132.048 Y132.593 E0.01211
G1 X131.682 Y132.716 E0.01211
G1 X131.298 Y132.764 E0.01211
G1 X130.913 Y132.736 E0.01211
G1 X130.541 Y132.631 E0.01211
G1 X130.197 Y132.455 E0.01211
G1 X129.895 Y132.214 E0.01211
G1 X129.647 Y131.918 E0.01209
G1 X129.470 Y131.594 E0.01160
G1 X129.369 Y131.298 E0.00981
G1 X129.312 Y130.922 E0.01192
G1 X129.332 Y130.536 E0.01211
G1 X129.427 Y130.161 E0.01211
G1 X129.595 Y129.813 E0.01211
G1 X129.828 Y129.505 E0.01211
G1 X130.117 Y129.250 E0.01211
G1 X130.452 Y129.057 E0.01211
G1 X130.818 Y128.934 E0.01211
G1 X131.142 Y128.893 E0.01023
G1 X131.189 Y129.267 F10800.000
;TYPE:External perimeter
G1 F1200.000
G1 X131.521 Y129.288 E0.01043
G1 X131.820 Y129.372 E0.00975
G1 X132.097 Y129.514 E0.00975
G1 X132.338 Y129.706 E0.00966
G1 X132.496 Y129.885 E0.00748
G1 X132.657 Y130.148 E0.00966
G1 X132.763 Y130.440 E0.00975
G1 X132.809 Y130.747 E0.00975
G1 X132.794 Y131.058 E0.00975
G1 X132.717 Y131.359 E0.00975
G1 X132.582 Y131.639 E0.00975
G1 X132.394 Y131.887 E0.00975
G1 X132.161 Y132.093 E0.00975
G1 X131.892 Y132.248 E0.00975
G1 X131.597 Y132.347 E0.00975
G1 X131.289 Y132.386 E0.00975
G1 X130.979 Y132.362 E0.00975
G1 X130.680 Y132.278 E0.00975
G1 X130.403 Y132.136 E0.00975
G1 X130.160 Y131.943 E0.00975
G1 X129.960 Y131.705 E0.00974
G1 X129.816 Y131.441 E0.00941
G1 X129.737 Y131.208 E0.00773
G1 X129.691 Y130.903 E0.00968
G1 X129.706 Y130.592 E0.00975
G1 X129.783 Y130.291 E0.00975
G1 X129.918 Y130.011 E0.00975
G1 X130.106 Y129.763 E0.00975
G1 X130.339 Y129.557 E0.00975
G1 X130.608 Y129.402 E0.00975
G1 X130.903 Y129.303 E0.00975
G1 X131.129 Y129.275 E0.00717
G1 X131.345 Y128.973 F10800.000
;WIPE_START
G1 F8640.000
G1 X131.521 Y129.288 E-0.09048
G1 X131.820 Y129.372 E-0.07178
G1 X132.097 Y129.514 E-0.07178
G1 X132.338 Y129.706 E-0.07117
G1 X132.496 Y129.885 E-0.05508
G1 X132.657 Y130.148 E-0.07117
G1 X132.763 Y130.440 E-0.07178
G1 X132.809 Y130.747 E-0.07178
G1 X132.794 Y131.058 E-0.07178
G1 X132.717 Y131.359 E-0.07178
G1 X132.639 Y131.521 E-0.04141
;WIPE_END
G1 E-0.04000 F2100.000
G1 Z0.600 F10800.000
G1 X162.703 Y103.996
G1 Z0.200
G1 E0.80000 F2100.000
;TYPE:Perimeter
G1 F1200.000
G1 X162.502 Y103.667 E0.01211
G1 X162.370 Y103.304 E0.01211
G1 X162.312 Y102.922 E0.01211
G1 X162.332 Y102.536 E0.01211
G1 X162.427 Y102.161 E0.01211
G1 X162.595 Y101.813 E0.01211
G1 X162.828 Y101.505 E0.01211
G1 X163.117 Y101.250 E0.01211
G1 X163.452 Y101.057 E0.01211
G1 X163.818 Y100.934 E0.01211
G1 X164.202 Y100.886 E0.01211
G1 X164.586 Y100.914 E0.01209
G1 X164.943 Y101.014 E0.01160
G1 X165.225 Y101.149 E0.00981
G1 X165.534 Y101.370 E0.01192
G1 X165.796 Y101.654 E0.01211
G1 X165.998 Y101.983 E0.01211
G1 X166.130 Y102.346 E0.01211
G1 X166.188 Y102.728 E0.01211
G1 X166.168 Y103.114 E0.01211
G1 X166.073 Y103.489 E0.01211
G1 X165.905 Y103.837 E0.01211
G1 X165.672 Y104.145 E0.01211
G1 X165.383 Y104.400 E0.01211
G1 X165.048 Y104.593 E0.01211
G1 X164.682 Y104.716 E0.01211
G1 X164.298 Y104.764 E0.01211
G1 X163.913 Y104.736 E0.01211
G1 X163.548 Y104.633 E0.01188
G1 X163.274 Y104.501 E0.00955
G1 X162.966 Y104.280 E0.01188
G1 X162.744 Y104.040 E0.01023
G1 X163.021 Y103.784 F10800.000
;TYPE:External perimeter
G1 F1200.000
G1 X162.843 Y103.502 E0.01043
G1 X162.737 Y103.210 E0.00975
G1 X162.691 Y102.903 E0.00975
G1 X162.706 Y102.592 E0.00975
G1 X162.783 Y102.291 E0.00975
G1 X162.918 Y102.011 E0.00975
G1 X163.106 Y101.763 E0.00975
G1 X163.339 Y101.557 E0.00975
G1 X163.608 Y101.402 E0.00975
G1 X163.903 Y101.303 E0.00975
G1 X164.211 Y101.264 E0.00975
G1 X164.521 Y101.288 E0.00974
G1 X164.810 Y101.368 E0.00941
G1 X165.032 Y101.474 E0.00773
G1 X165.283 Y101.655 E0.00968
G1 X165.494 Y101.882 E0.00975
G1 X165.657 Y102.148 E0.00975
G1 X165.763 Y102.440 E0.00975
G1 X165.809 Y102.747 E0.00975
G1 X165.794 Y103.058 E0.00975
G1 X165.717 Y103.359 E0.00975
G1 X165.582 Y103.639 E0.00975
G1 X165.394 Y103.887 E0.00975
G1 X165.161 Y104.093 E0.00975
G1 X164.892 Y104.248 E0.00975
G1 X164.597 Y104.347 E0.00975
G1 X164.289 Y104.386 E0.00975
G1 X163.979 Y104.362 E0.00975
G1 X163.682 Y104.279 E0.00966
G1 X163.467 Y104.175 E0.00748
G1 X163.217 Y103.995 E0.00966
G1 X163.062 Y103.828 E0.00717
G1 X162.691 Y103.829 F10800.000
;WIPE_START
G1 F8640.000
G1 X162.843 Y103.502 E-0.09048
G1 X162.737 Y103.210 E-0.07178
G1 X162.691 Y102.903 E-0.07178
G1 X162.706 Y102.592 E-0.07178
G1 X162.783 Y102.291 E-0.07178
G1 X162.918 Y102.011 E-0.07178
G1 X163.106 Y101.763 E-0.07178
G1 X163.339 Y101.557 E-0.07178
G1 X163.608 Y101.402 E-0.07178
G1 X163.903 Y101.303 E-0.07178
G1 X164.004 Y101.290 E-0.02349
;WIPE_END
G1 E-0.04000 F2100.000
G1 Z0.600 F10800.000
G1 X163.787 Y100.837
G1 Z0.200
G1 E0.80000 F2100.000
;TYPE:Perimeter
G1 F1200.000
G1 X163.193 Y101.173 E0.02140
G1 X162.954 Y101.353 E0.00936
G1 X162.749 Y101.563 E0.00921
G1 X162.577 Y101.801 E0.00921
G1 X162.440 Y102.069 E0.00944
G1 X162.378 Y102.239 E0.00568
G1 X162.311 Y102.532 E0.00944
G1 X162.289 Y102.825 E0.00921
G1 X162.311 Y103.118 E0.00921
G1 X162.378 Y103.411 E0.00944
G1 X162.440 Y103.581 E0.00568
G1 X162.577 Y103.849 E0.00944
G1 X162.749 Y104.087 E0.00921
G1 X162.954 Y104.297 E0.00921
G1 X163.193 Y104.477 E0.00936
G1 X163.787 Y104.813 E0.02140
G1 X163.787 Y128.787 E0.75170
G1 X164.198 Y128.736 E0.01298
G1 X164.613 Y128.767 E0.01305
G1 X165.014 Y128.879 E0.01305
G1 X165.384 Y129.069 E0.01305
G1 X165.709 Y129.329 E0.01305
G1 X165.977 Y129.648 E0.01305
G1 X166.176 Y130.013 E0.01305
G1 X166.299 Y130.411 E0.01305
G1 X166.340 Y130.825 E0.01305
G1 X166.299 Y131.239 E0.01305
G1 X166.176 Y131.637 E0.01305
G1 X165.977 Y132.002 E0.01305
G1 X165.709 Y132.321 E0.01305
G1 X165.384 Y132.581 E0.01305
G1 X165.014 Y132.771 E0.01305
G1 X164.620 Y132.881 E0.01282
G1 X164.295 Y132.914 E0.01025
G1 X163.887 Y132.883 E0.01282
G1 X163.486 Y132.771 E0.01305
G1 X163.116 Y132.581 E0.01305
G1 X162.791 Y132.321 E0.01305
G1 X162.523 Y132.002 E0.01305
G1 X162.324 Y131.637 E0.01305
G1 X162.201 Y131.239 E0.01305
G1 X162.161 Y130.832 E0.01282
G1 X162.185 Y130.506 E0.01025
G1 X162.222 Y130.362 E0.00467
G1 X133.245 Y130.362 E0.90856
G1 X132.848 Y129.688 E0.02452
G1 X132.674 Y129.477 E0.00856
G1 X132.381 Y129.223 E0.01217
G1 X131.713 Y128.830 E0.02430
G1 X131.713 Y104.813 E0.75306
M73 Q0 S82
G1 X132.307 Y104.477 E0.02140
G1 X132.546 Y104.297 E0.00936
G1 X132.751 Y104.087 E0.00921
G1 X132.923 Y103.849 E0.00921
G1 X133.057 Y103.588 E0.00921
G1 X133.153 Y103.303 E0.00944
G1 X133.189 Y103.125 E0.00568
G1 X133.211 Y102.825 E0.00944
G1 X133.189 Y102.525 E0.00944
G1 X133.153 Y102.347 E0.00568
G1 X133.057 Y102.062 E0.00944
G1 X132.923 Y101.801 E0.00921
G1 X132.751 Y101.563 E0.00921
G1 X132.546 Y101.353 E0.00921
G1 X132.307 Y101.173 E0.00936
G1 X131.713 Y100.837 E0.02140
G1 X131.713 Y82.288 E0.58161
G1 X162.216 Y82.288 E0.95642
G1 X162.161 Y81.832 E0.01439
G1 X162.185 Y81.506 E0.01025
G1 X162.286 Y81.110 E0.01282
G1 X162.467 Y80.735 E0.01305
G1 X162.718 Y80.403 E0.01305
G1 X163.030 Y80.128 E0.01305
G1 X163.390 Y79.920 E0.01305
G1 X163.785 Y79.787 E0.01305
G1 X164.198 Y79.736 E0.01305
G1 X164.613 Y79.767 E0.01305
G1 X165.014 Y79.879 E0.01305
G1 X165.384 Y80.069 E0.01305
G1 X165.709 Y80.329 E0.01305
G1 X165.977 Y80.648 E0.01305
G1 X166.176 Y81.013 E0.01305
G1 X166.299 Y81.411 E0.01305
G1 X166.340 Y81.825 E0.01305
G1 X166.299 Y82.239 E0.01305
G1 X166.176 Y82.637 E0.01305
G1 X165.980 Y82.996 E0.01282
G1 X165.777 Y83.251 E0.01025
G1 X165.470 Y83.522 E0.01282
G1 X165.110 Y83.730 E0.01305
G1 X164.715 Y83.863 E0.01305
G1 X164.302 Y83.914 E0.01305
G1 X163.887 Y83.883 E0.01305
G1 X163.787 Y83.855 E0.00326
G1 X163.787 Y100.777 E0.53059
G1 X163.410 Y100.617 F10800.000
;TYPE:External perimeter
G1 F1200.000
G1 X162.986 Y100.857 E0.01528
G1 X162.705 Y101.069 E0.01104
G1 X162.460 Y101.319 E0.01098
G1 X162.255 Y101.603 E0.01098
G1 X162.094 Y101.917 E0.01106
G1 X162.016 Y102.132 E0.00716
G1 X161.937 Y102.476 E0.01106
G1 X161.911 Y102.825 E0.01098
G1 X161.937 Y103.174 E0.01098
G1 X162.016 Y103.518 E0.01106
G1 X162.094 Y103.733 E0.00716
G1 X162.255 Y104.047 E0.01106
G1 X162.460 Y104.331 E0.01098
G1 X162.705 Y104.581 E0.01098
G1 X162.986 Y104.793 E0.01104
G1 X163.410 Y105.033 E0.01528
G1 X163.410 Y128.615 E0.73940
G1 X162.898 Y128.916 E0.01861
G1 X162.555 Y129.213 E0.01425
G1 X162.342 Y129.471 E0.01049
G1 X162.040 Y129.985 E0.01869
G1 X133.460 Y129.985 E0.89609
